!!!!SEGMENT: pl-wn--mus-iii-601--003-001_janiewicz-feliks--iiie-trio-allegro.krn
!!!cenid: 17xx:2393
!!!COM: Janiewicz, Feliks
!!!COM-rismID: pe30011012
!!!CDT: 1762-1848
!!!CNT:
!!!OPR: IIIe Trio
!!!OTL: Allegro
!!!OMV: 001
!!!PDT:
!!!AGN:
!!!SMS-siglum: PL-Wn
!!!SMS-shelfmark: Mus.III.601
!!!SMS-shelfwork: 003-001 M
!!!SMS-variant:
!!!SMS-altvar:
!!!NIFC-rismSourceID: 990069598
!!!NIFC-rismChildID: 990069598
!!!NIFC-islandoraID:
!!!URL-pdf-islandora:
!!!URL-scan: https://polona.pl/item/six-trios-pour-deux-violons-basse,MTAxMDA3MzY2/0/#item @EN{Scan on Polona} @PL{Skany w portalu Polona}
!!!ONB-nifc: UWAGA: źródło zawiera 6 Trio na 2 skrzypiec i wiolonczelę. Violino Primo (od skanu 3), Violino Secondo (od skanu 37), Basso (od skanu 61). Basso to partia wiolonczeli. Części Ie Trio: 1. Allegro, 2. Andante, 3. Rondeau/Allegro
!!!AIN: 1 cello 2 violn
!!!OMD:
!!!OMD-mod: Allegro
!!!key: E
**kern	**dynam	**kern	**dynam	**kern	**fing	**dynam
*part3	*part3	*part2	*part2	*part1	*part1	*part1
*staff3	*	*staff2	*	*staff1	*	*
*>[A,A,B]	*	*>[A,A,B]	*	*>[A,A,B]	*	*
*>A	*	*>A	*	*>A	*	*
*I"BASSO	*	*I"VIOLINO SECONDO	*	*I"VIOLINO PRIMO	*	*
*mI"Violoncello	*	*mI"Violino II	*	*mI"Violino I	*	*
*I'vlc	*	*I'vl 2	*	*I'vl 1	*	*
*Icello	*	*Ivioln	*	*Ivioln	*	*
*ICstr	*	*ICstr	*	*ICstr	*	*
*clefF4	*	*clefG2	*	*clefG2	*	*
*k[f#c#g#d#]	*	*k[f#c#g#d#]	*	*k[f#c#g#d#]	*	*
*E:	*	*E:	*	*E:	*	*
*M4/4	*	*M4/4	*	*M4/4	*	*
*met(c)	*	*met(c)	*	*met(c)	*	*
*mmet(c)	*	*mmet(c)	*	*mmet(c)	*	*
=1	=1	=1	=1	=1	=1	=1
*xywh-#68:613,486,3353,531	*	*xywh-#47:449,543,3308,572	*	*xywh-#16:511,496,3388,502	*	*
!	!	!	!	!	!	!LO:MO:mod=!LO&colon;DY&colon;ed=brack
!	!	!LO:TX:a:t=Allegro:mod=	!	!	!	!null
!LO:TX:a:t=1:mod=	!	!LO:TX:a:t=1:mod=	!	!LO:TX:a:B:t=Allegro:mod=	!	!LO:MO:null:mod=p
1r	.	1r	.	4.b/	.	.
.	.	.	.	8g#/	.	.
.	.	.	.	4.e/	.	.
.	.	.	.	8g#/	.	.
=2	=2	=2	=2	=2	=2	=2
4r	.	4r	.	4B/	.	.
!	!	!	!LO:MO:mod=!LO&colon;DY&colon;ed=brack	!	!	!
!	!	!	!null	!	!	!
!	!	!	!LO:MO:null:mod=p	!	!	!
4E\	p	4G#/	.	4r	.	.
4E\	.	4G#/	.	8r	.	.
.	.	.	.	8B/L	.	.
4r	.	4r	.	8e/	.	.
.	.	.	.	8f#/J	.	.
=3	=3	=3	=3	=3	=3	=3
4E\	.	8e'/L	.	4g#/	.	.
.	.	8B'/	.	.	.	.
4r	.	8e'/	.	4g#/	.	.
.	.	8B'/J	.	.	.	.
!	!	!	!	!LO:MO:mod=16qqa	!	!
.	.	.	.	8qqa/	.	.
4EE/	.	8e'/L	.	8g#/L	.	.
.	.	8B'/	.	8f#/	.	.
4r	.	8e'/	.	8g#/	.	.
.	.	8B'/J	.	8a/J	.	.
=4	=4	=4	=4	=4	=4	=4
.	.	.	.	8qqa/	.	.
4BB/	.	8d#'/L	.	2f#/	.	.
.	.	8B'/	.	.	.	.
4B\	.	8d#'/	.	.	.	.
.	.	8B'/J	.	.	.	.
4BB/	.	4d#/	.	2r	.	.
4r	.	4r	.	.	.	.
=5	=5	=5	=5	=5	=5	=5
4r	.	4r	.	4.a/	.	.
4BB/	.	4d#/	.	.	.	.
.	.	.	.	8f#/	.	.
4r	.	4r	.	4.d#/	.	.
4D#\	.	4B/	.	.	.	.
.	.	.	.	8B/	.	.
=6	=6	=6	=6	=6	=6	=6
4E\	.	8r	.	4.e/	.	.
.	.	8G#/L	.	.	.	.
4r	.	8B/	.	.	.	.
.	.	8e/J	.	8g#/	.	.
4D#\	.	8f#/L	.	4.b/	.	.
.	.	8B/	.	.	.	.
4BB/	.	8d#/	.	.	.	.
.	.	8f#/J	.	8a/	.	.
=7	=7	=7	=7	=7	=7	=7
4E\	.	8e/L	.	4g#/	.	.
.	.	8B/	.	.	.	.
4r	.	8G#/	.	4g#/	.	.
.	.	8B/J	.	.	.	.
!	!	!	!	!LO:MO:mod=16qqg#	!	!
.	.	.	.	8qqg#/	.	.
2BB/	.	8A/L	.	8f#/L	.	.
.	.	8B/	.	8e/	.	.
.	.	8A/	.	8f#/	.	.
.	.	8B/J	.	8g#/J	.	.
!	!	!	!	!LO:LB:g=original	!	!
=8	=8	=8	=8	=8	=8	=8
!LO:TX:t=P:problem=mixed beam	!LO:MO:mod=.	!	!LO:MO:null:mod=f	!	!	!
*	*	*	*	*xywh-#16:538,952,3368,378	*	*
8EE/L	f	2G#/	.	2e/	.	.
!	!LO:MO:null:mod=f	!	!	!	!	!
(8E\	.	.	.	.	.	.
8D#\	.	.	.	.	.	.
8E\J)	.	.	.	.	.	.
(8F#\L	.	4A/	.	2r	.	.
8E\	.	.	.	.	.	.
!	!	!	!LO:MO:mod=.	!	!	!
8G#\	.	4B/	f	.	.	.
8E\J)	.	.	.	.	.	.
=9	=9	=9	=9	=9	=9	=9
2EE/	.	8c#'/L	.	1cc#	.	.
.	.	(8a/	.	.	.	.
.	.	8g#/	.	.	.	.
.	.	8a/J)	.	.	.	.
4E\	.	(8b/L	.	.	.	.
.	.	8a/	.	.	.	.
4E\	.	8cc#/	.	.	.	.
.	.	8a/J)	.	.	.	.
!LO:LB:g=original	!	!LO:LB:g=original	!	!	!	!
=10	=10	=10	=10	=10	=10	=10
*xywh-#68:605,886,3368,388	*	*xywh-#47:403,1006,3339,367	*	*	*	*
2D#\	p	2f#/	.	8r	.	.
!	!	!	!	!	!	!LO:DY:b:t=rinf:mod=%s
.	.	.	.	(8b/L	.	rf
.	.	.	.	8a#X/	.	.
.	.	.	.	8b/J)	.	.
2BB/	.	2f#/ 2a	.	(8dd#\L	.	.
.	.	.	.	8ee\	.	.
.	.	.	.	8ff#\)	.	.
!	!	!	!	!LO:SIC:s=8aJ	!	!
.	.	.	.	8a#\J	.	.
=11	=11	=11	=11	=11	=11	=11
.	.	.	.	8qqa/	.	.
!	!	!LO:TX:a:t=1:mod=	!	!	!	!
8r	.	1r	.	1g#	.	.
(8E\L	.	.	.	.	.	.
8D#\	.	.	.	.	.	.
8E\J)	.	.	.	.	.	.
(8F#\L	.	.	.	.	.	.
8E\	.	.	.	.	.	.
8G#\	.	.	.	.	.	.
8B\J)	.	.	.	.	.	.
=12	=12	=12	=12	=12	=12	=12
2e\	.	2g#/ 2b	p	8r	.	.
!	!	!	!	!	!	!LO:DY:b:t=rinf:mod=%s
.	.	.	.	(8ee\L	.	rf
.	.	.	.	8dd#\	.	.
.	.	.	.	8ee\J)	.	.
2G#\	.	4e/ 4b	.	8ff#`\L	.	.
.	.	.	.	(8ee\	.	.
.	.	4e/ 4b	.	8gg#\)	.	.
.	.	.	.	8ee`\J	.	.
=13	=13	=13	=13	=13	=13	=13
2A\	.	8r	.	1cc#	.	.
.	.	(8a/L	.	.	.	.
.	.	8g#/	.	.	.	.
.	.	8a/J)	.	.	.	.
2AA/	.	(8b/L	f	.	.	.
.	.	8a/	.	.	.	.
.	.	8cc#/	.	.	.	.
.	.	8a/J)	.	.	.	.
=14	=14	=14	=14	=14	=14	=14
2BB/	p	2d#/	p	8r	.	.
!	!	!	!	!	!	!LO:DY:b:t=rinf:mod=%s
.	.	.	.	(8f#/L	.	rf
.	.	.	.	8e#X/	.	.
.	.	.	.	8f#/J)	.	.
2BB/	.	2A/	.	(8g#/L	.	.
.	.	.	.	8f#/	.	.
.	.	.	.	8b/	.	.
.	.	.	.	8d#/J)	.	.
=15	=15	=15	=15	=15	=15	=15
!	!	!	!	!	!	!LO:MO:mod=!null:null
!	!	!	!	!LO:TX:b:t=cres_cen_do:problem:dynamics with line extensions:mod=	!	!LO:HP:b:t=cres-cen-do:ext=ud
8EE/L	f	8G#/L	f	[2e/	.	<
16GG#/L	.	16B/L	.	.	.	.
16BB/JJ	.	16e/JJ	.	.	.	.
8E\L	.	8g#/L	.	.	.	.
8E\J	.	8g#/J	.	.	.	.
4E\	.	4g#/	.	8e/L]	.	.
.	.	.	.	8B/J	.	.
4r	.	4r	.	4BT/	.	.
=16	=16	=16	=16	=16	=16	=16
!	!	!	!LO:MO:null:mod=f	!	!	!
8EE/L	f	8G#/L	.	[2g#/	.	.
16GG#/L	.	16B/L	.	.	.	.
!	!	!	!LO:MO:mod=.	!	!	!
16BB/JJ	.	16e/JJ	f	.	.	.
8E\L	.	8g#/L	.	.	.	.
8E\J	.	8B/J 8g#	.	.	.	.
4E\	.	4B/ 4g#	.	8g#/L]	.	.
.	.	.	.	8e/J	.	.
!	!	!	!	!	!	!LO:MO:mod=.
4r	.	4r	.	4eT/	.	[
=17	=17	=17	=17	=17	=17	=17
4E\	.	4B`/ 4g#	.	8.b\L	.	f
.	.	.	.	16g#\K	.	.
4r	.	4r	.	8.ee\	.	.
.	.	.	.	16b\Jk	.	.
4r	.	4r	.	8.gg#\L	.	.
.	.	.	.	16ee\K	.	.
4E\	.	4B/ 4g#	.	8.b\	.	.
.	.	.	.	16g#\Jk	.	.
!	!	!	!	!LO:LB:g=original	!	!
=18	=18	=18	=18	=18	=18	=18
!	!	!LO:MO:mod=16qqf#	!	!LO:MO:mod=16qqa	!	!
*	*	*	*	*xywh-#16:538,1257,3368,320	*	*
.	.	8qqf#/	.	8qqa/	.	.
4BB/	.	8e/L	.	8g#/L	.	.
.	.	16d#/L	.	16f#/L	.	.
.	.	16e/JJ	.	16g#/JJ	.	.
4B\	.	8d#/L	.	8f#/L	.	.
.	.	8d#/J	.	8f#/J	.	.
4BB/	.	8d#/L	.	4f#/	.	.
.	.	8d#/	.	.	.	.
4r	.	8c#/	.	4r	.	.
.	.	8e/J	.	.	.	.
=19	=19	=19	=19	=19	=19	=19
!	!	!	!	!LO:TX:b:i:t=dol:mod=dolce	!	!
4BB/	p	8d#/L	p	[2ff#\	.	.
.	.	8B/	.	.	.	.
4r	.	8d#/	.	.	.	.
.	.	8f#/J	.	.	.	.
4BB/	.	8d#/L	.	8ff#\L]	.	.
.	.	8f#/	.	(8dd#\	.	.
4r	.	8g#/	.	8ee\	.	.
.	.	8e/J	.	8gg#\J)	.	.
=20	=20	=20	=20	=20	=20	=20
4BB/	.	8d#/L	.	[4ff#\	.	.
.	.	8B/	.	.	.	.
4r	.	8d#/	.	16ff#\LL]	.	.
.	.	.	.	(16gg#\	.	.
.	.	8B/J	.	16ee\	.	.
.	.	.	.	16ff#\JJ)	.	.
2BB/	.	8d#/L	.	4dd#\	.	.
.	.	8f#/	.	.	.	.
.	.	8d#/	.	4r	.	.
.	.	8f#/J	.	.	.	.
!LO:LB:g=original	!	!LO:LB:g=original	!	!	!	!
=21	=21	=21	=21	=21	=21	=21
*xywh-#68:601,1210,3384,358	*	*xywh-#47:395,1312,3343,355	*	*	*	*
2C#/	.	8e/L	.	(8bb\L	.	.
.	.	8f#/	.	8aa#X\J)	.	.
.	.	8e/	.	[4aa#\	.	.
.	.	8f#/J	.	.	.	.
2FF#/	.	8e/L	.	8aa#\L]	.	.
.	.	8c#/	.	8ff#\	.	.
.	.	8e/	.	8gg#\	.	.
.	.	8c#/J	.	8aa#\J	.	.
=22	=22	=22	=22	=22	=22	=22
4BB/	.	8d#/L	.	(4.bb\	.	.
.	.	8f#/	.	.	.	.
4BB/	.	8d#/	.	.	.	.
.	.	8f#/J	.	16aa#X\LL	.	.
.	.	.	.	16gg#\JJ)	.	.
4BB/	.	8d#/L	.	4ff#\	.	.
.	.	8f#/	.	.	.	.
4r	.	8d#/	.	4r	.	.
.	.	8f#/J	.	.	.	.
=23	=23	=23	=23	=23	=23	=23
8EE/L	f	8c#/L	f	4e\ 4cc# 4gg#	.	.
16GG#/L	.	16e/L	.	.	.	.
16C#/JJ	.	16g#/JJ	.	.	.	.
!	!	!	!	!	!	!LO:DY:b:t=rinf:mod=%s
8E\L	.	8cc#\L	.	[4gg#\	.	rf
8E\J	.	8cc#\J	.	.	.	.
!	!	!	!	!LO:SIC:s=16gg#LL]	!	!
4E\	.	4cc#\	.	16gg#\]	.	.
!	!	!	!	!LO:SIC:s=(16ff##	!	!
.	.	.	.	(16ff##X\LL	.	.
.	.	.	.	16aa#X\	.	.
.	.	.	.	16gg#\JJ	.	.
4r	.	4r	.	16ff#X\LL	.	.
.	.	.	.	16ee\	.	.
.	.	.	.	16dd#\	.	.
.	.	.	.	16cc#\JJ)	.	.
=24	=24	=24	=24	=24	=24	=24
!	!	!	!LO:MO:null:mod=pp	!	!	!
4F#\	p	4c#/	.	(4.a#X/	.	.
!	!	!	!LO:MO:mod=.	!	!	!
4E\	.	2f#/	pp	.	.	.
.	.	.	.	16b/LL	.	.
.	.	.	.	16cc#/JJ)	.	.
4D#\	.	.	.	4b/	.	.
4BB/	.	4f#/	.	4r	.	.
!	!	!	!	!LO:LB:g=original	!	!
=25	=25	=25	=25	=25	=25	=25
!	!	!	!	!LO:MO:mod=*null:null	!	!
*	*	*	*	*Xtuplet	*	*
*	*	*	*	*xywh-#16:554,1562,3353,324	*	*
2E\	.	4c#/	.	12g#\L	.	.
.	.	.	.	12cc#\	.	.
.	.	.	.	12b#X\J	.	.
.	.	4G#/	.	12cc#\L	.	.
.	.	.	.	12ee\	.	.
.	.	.	.	12dd#\J	.	.
4E\	.	4g#/	.	12cc#\L	.	.
.	.	.	.	12dd#\	.	.
.	.	.	.	12cc#\J	.	.
!	!	!	!	!LO:MO:mod=16qqcc#	!	!
.	.	.	.	8qqcc#/	.	.
!	!	!	!	!LO:SIC:s=12bL	!	!
4E#X\	.	4g#/	.	12b#\L	.	.
.	.	.	.	12a#X\	.	.
!	!	!	!	!LO:SIC:s=12bJ	!	!
.	.	.	.	12b#\J	.	.
=26	=26	=26	=26	=26	=26	=26
2F#\	.	2c#/	f	(16a#X\LL	.	.
.	.	.	.	16cc#\)	.	.
.	.	.	.	16ee`\	.	.
!	!	!	!	!LO:SIC:s=16gg`JJ	!	!
.	.	.	.	16gg#`\JJ	.	.
.	.	.	.	(16ff#\LL	.	.
.	.	.	.	16ee\)	.	.
.	.	.	.	16aa#X`\	.	.
.	.	.	.	16ee`\JJ	.	.
2AA#X/	.	2c#/ 2f#	.	(16ccc#\LL	.	.
.	.	.	.	16ee\)	.	.
.	.	.	.	16aa#X`\	.	.
.	.	.	.	16ee`\JJ	.	.
.	.	.	.	(16ff#\LL	.	.
.	.	.	.	16ee\)	.	.
.	.	.	.	16ggn`\	.	.
.	.	.	.	16ee`\JJ	.	.
=27	=27	=27	=27	=27	=27	=27
4BB/	.	4d#/ 4f#	.	16dd#\LL	.	.
.	.	.	.	16b\	.	.
.	.	.	.	16dd#\	.	.
.	.	.	.	16ff#\JJ	.	.
4r	.	4r	.	16bb\LL	.	.
.	.	.	.	16aa#X\	.	.
.	.	.	.	16gg#X\	.	.
.	.	.	.	16ff#\JJ	.	.
2r	.	2r	.	16bb\LL	.	.
.	.	.	.	16aa#\	.	.
.	.	.	.	16gg#\	.	.
.	.	.	.	16ff#\JJ	.	.
.	.	.	.	16ee\LL	.	.
.	.	.	.	16dd#\	.	.
.	.	.	.	16cc#\	.	.
.	.	.	.	16b\JJ	.	.
!	!	!	!	!LO:LB:g=original	!	!
=28	=28	=28	=28	=28	=28	=28
*	*	*	*	*xywh-#16:562,1860,3376,301	*	*
2FF#/	.	2c#/ 2f#	p	16a#X\LL	.	.
.	.	.	.	16cc#\	.	.
.	.	.	.	16ee\	.	.
.	.	.	.	16ggn\JJ	.	.
.	.	.	.	16ff#\LL	.	.
.	.	.	.	16ee\	.	.
.	.	.	.	16aa#X\	.	.
.	.	.	.	16ee\JJ	.	.
2AA#X/	.	2c#/ 2f#	.	16ccc#\LL	.	.
.	.	.	.	16ee\	.	.
.	.	.	.	16aa#\	.	.
.	.	.	.	16ee\JJ	.	.
.	.	.	.	16ff#\LL	.	.
.	.	.	.	16ee\	.	.
.	.	.	.	16ggn\	.	.
.	.	.	.	16ee\JJ	.	.
=29	=29	=29	=29	=29	=29	=29
4BB/	.	4d#/ 4f#	.	16dd#\LL	.	.
.	.	.	.	16b\	.	.
.	.	.	.	16dd#\	.	.
.	.	.	.	16ff#\JJ	.	.
4r	.	4r	.	16bb\LL	.	.
.	.	.	.	16aa#X\	.	.
.	.	.	.	16gg#X\	.	.
.	.	.	.	16ff#\JJ	.	.
2r	.	2r	.	16bb\LL	.	.
.	.	.	.	16aa#\	.	.
.	.	.	.	16gg#\	.	.
.	.	.	.	16ff#\JJ	.	.
.	.	.	.	16ee\LL	.	.
.	.	.	.	16dd#\	.	.
.	.	.	.	16cc#\	.	.
.	.	.	.	16b\JJ	.	.
=30	=30	=30	=30	=30	=30	=30
!LO:TX:t=P:problem=mixed beam	!	!	!	!	!	!
8EE/L	f	8B/L 8g#	f	16gg#\LL	.	.
.	.	.	.	16ee\	.	.
8E\J	.	8B/J 8g#	.	16b\	.	.
.	.	.	.	16g#\JJ	.	.
!	!	!	!	!LO:TX:t=P:problem=mixed beam	!	!
8r	.	8r	.	8e/L	.	.
8E\	.	8B/ 8g#	.	8gg#\J	.	.
!LO:TX:t=P:problem=mixed beam	!	!	!	!	!	!
8EE/L	f	8c#/L 8f#	f	16aa#X\LL	.	.
.	.	.	.	16ff#\	.	.
8E\J	.	8c#/J 8f#	.	16cc#\	.	.
!	!	!	!	!LO:SIC:s=16a#JJ	!	!
.	.	.	.	16a\JJ	.	.
!	!	!	!	!LO:TX:t=P:problem=mixed beam	!	!
8r	.	8r	.	8f#/L	.	.
8E\	.	8c#/ 8f#	.	8aa#\J	.	.
!	!	!	!	!LO:LB:g=original	!	!
=31	=31	=31	=31	=31	=31	=31
*	*	*	*	*xywh-#16:587,2159,3326,367	*	*
4D#\	.	4B/ 4f#	.	(16bb\LL	.	.
.	.	.	.	16aa#X\	.	.
.	.	.	.	16bb\	.	.
.	.	.	.	16aa#\JJ	.	.
4r	.	4r	.	16bb\LL	.	.
.	.	.	.	16aa#\	.	.
.	.	.	.	16bb\	.	.
.	.	.	.	16aa#\JJ)	.	.
2BB/	p	2d#/	p	(16bb\LL	.	.
.	.	.	.	16ccc#\	.	.
.	.	.	.	16ddd#\	.	.
.	.	.	.	16ccc#\JJ	.	.
.	.	.	.	16bb\LL	.	.
.	.	.	.	16aa#\	.	.
.	.	.	.	16gg#\	.	.
.	.	.	.	16ff##X\JJ)	.	.
=32	=32	=32	=32	=32	=32	=32
4E\	.	4B/	.	(16gg#\LL	.	.
.	.	.	.	16ff##X\	.	.
.	.	.	.	16gg#\	.	.
.	.	.	.	16ff##\JJ	.	.
4r	.	4r	.	16gg#\LL	.	.
.	.	.	.	16ff##\	.	.
.	.	.	.	16gg#\	.	.
.	.	.	.	16ff##\JJ)	.	.
2r	.	2r	.	(16gg#\LL	.	.
!	!	!	!	!LO:SIC:s=16aa#	!	!
.	.	.	.	16aa\	.	.
.	.	.	.	16bb\	.	.
!	!	!	!	!LO:SIC:s=16aa#JJ	!	!
.	.	.	.	16aa\JJ	.	.
.	.	.	.	16gg#\LL	.	.
.	.	.	.	16ff#X\	.	.
.	.	.	.	16ee\	.	.
.	.	.	.	16dd#\JJ)	.	.
!LO:LB:g=original	!	!	!	!	!	!
=33	=33	=33	=33	=33	=33	=33
!	!	!	!	!LO:SIC:s=(16cc#LL	!	!
*xywh-#68:597,1491,3364,327	*	*	*	*	*	*
4E\	.	4g#/	.	16cc#\LL	.	>
.	.	.	.	16b#X\	.	.
.	.	.	.	16dd#\	.	.
.	.	.	.	16cc#\JJ	.	.
4r	.	4r	.	16ee\LL	.	.
.	.	.	.	16dd#\	.	.
.	.	.	.	16ff#\	.	.
.	.	.	.	16ee\JJ	.	.
2r	.	2r	.	16gg#\LL	.	.
.	.	.	.	16ff##X\	.	.
.	.	.	.	16aa#X\	.	.
.	.	.	.	16gg#\JJ	.	.
.	.	.	.	16ff#X\LL	.	.
.	.	.	.	16ee\	.	.
.	.	.	.	16dd#\	.	.
!	!	!	!	!LO:SIC:s=16cc#JJ)	!	!LO:MO:mod=.
.	.	.	.	16cc#\JJ	.	]
!	!	!LO:LB:g=original	!	!LO:LB:g=original	!	!
=34	=34	=34	=34	=34	=34	=34
!	!	!	!	!	!	!LO:MO:mod=.
*	*	*xywh-#47:376,1590,3335,340	*	*xywh-#16:560,2461,3345,332	*	*
4D#\	.	2B/	.	12ff#\L	.	>
.	.	.	.	12bb\	.	.
.	.	.	.	12ff#\J	.	.
4E\	.	.	.	(12gg#\L	.	.
.	.	.	.	12ee\	.	.
.	.	.	.	12cc#\J)	.	.
!LO:TX:t=P:problem=mixed beam	!	!	!	!	!	!
8F#\L	.	8B/L	.	2cc#T\	.	.
8F#\	.	8B/	.	.	.	.
8FF#/	.	8A#X/	.	.	.	.
8FF#/J	.	8A#/J	.	.	.	]]
=35	=35	=35	=35	=35	=35	=35
4BB/	.	8r	.	4b\	.	.
!	!	!	!LO:MO:null:mod=f	!	!	!
.	.	8f#/L	.	.	.	.
4r	.	8f#/	.	4r	.	.
.	.	8f#/J	.	.	.	.
!	!	!	!LO:MO:mod=.	!	!	!
4AA#X/	.	8e/L	f	2r	.	.
.	.	8f#/	.	.	.	.
4FF#/	.	8e/	.	.	.	.
.	.	8f#/J	.	.	.	.
=36	=36	=36	=36	=36	=36	=36
!	!	!	!	!LO:MO:mod=!LO&colon;TX&colon;b&colon;i&colon;t=dolce	!	!
!	!	!	!	!LO:TX:a:i:t=dol	!	!
4BB/	.	8r	.	4.ff#\	.	.
.	.	8dn'/L	p	.	.	.
4r	.	8B'/	.	.	.	.
.	.	8d'/J	.	8ddn\	.	.
2r	.	8d'/L	.	4.b\	.	.
.	.	8f#'/	.	.	.	.
.	.	8d'/	.	.	.	.
.	.	8B'/J	.	8dd\	.	.
=37	=37	=37	=37	=37	=37	=37
!LO:TX:b:i:t=dol:mod=dolce	!	!	!	!	!	!
4.B\	.	8dn/L	.	4f#/	.	.
.	.	8B/	.	.	.	.
.	.	8d/	.	4r	.	.
8F#\	.	8B/J	.	.	.	.
4.Dn\	.	8d/L	.	8r	.	.
.	.	8B/	.	8f#/L	.	.
.	.	8f#/	.	8b/	.	.
8F#\	.	8e/J	.	8cc#/J	.	.
=38	=38	=38	=38	=38	=38	=38
4BB/	.	8dn/L	.	4ddn\	.	.
.	.	8f#/	.	.	.	.
4BB/	.	8b/	.	4dd\	.	.
.	.	8f#/J	.	.	.	.
!	!	!	!	!LO:MO:mod=16qqee	!	!
.	.	.	.	8qqee/	.	.
4BB/	.	8b/L	.	8dd\L	.	.
.	.	8f#/	.	8cc#\	.	.
4r	.	8b/	.	8dd\	.	.
.	.	8f#/J	.	8ee\J	.	.
=39	=39	=39	=39	=39	=39	=39
.	.	.	.	8qqee/	.	.
2FF#/	.	8a#X/L	.	2cc#\	.	.
.	.	8f#/	.	.	.	.
.	.	8c#/	.	.	.	.
.	.	8f#/J	.	.	.	.
4C#/	.	8A#X/L	.	2r	.	.
.	.	8f#/	.	.	.	.
4AA#X/	.	8c#/	.	.	.	.
.	.	8f#/J	.	.	.	.
=40	=40	=40	=40	=40	=40	=40
.	.	.	.	8qqcc#/	.	.
4FF#/	.	8A#X/L	.	[2ff#\	.	.
.	.	8f#/	.	.	.	.
4r	.	8c#/	.	.	.	.
.	.	8f#/J	.	.	.	.
4AA#X/	.	8c#/L	.	8ff#\L]	.	.
.	.	8f#/	.	8ee\	.	.
4r	.	8c#/	.	8ddn\	.	.
.	.	8f#/J	.	8cc#\J	.	.
=41	=41	=41	=41	=41	=41	=41
.	.	.	.	8qqee/	.	.
4BB/	.	8B/L	.	2ddn\	.	.
.	.	8f#/	.	.	.	.
4B\	.	8dn/	.	.	.	.
.	.	8f#/J	.	.	.	.
8B\L	.	8d/L	.	2r	.	.
8c#\	.	8e/	.	.	.	.
8dn\	.	8f#/	.	.	.	.
8B\J	.	8d/J	.	.	.	.
!	!	!LO:LB:g=original	!	!	!	!
=42	=42	=42	=42	=42	=42	=42
.	.	.	.	8qqcc#/	.	.
*	*	*xywh-#47:387,1888,3358,340	*	*	*	*
4A#X\	.	8c#/L	.	[2ff#\	.	.
.	.	8f#/	.	.	.	.
4r	.	8c#/	.	.	.	.
.	.	8f#/J	.	.	.	.
4F#\	.	8A#X/L	.	8ff#\L]	.	.
.	.	8f#/	.	(8ggn\	.	.
4r	.	8c#/	.	8ff#\	.	.
.	.	8f#/J	.	8ee\J)	.	.
=43	=43	=43	=43	=43	=43	=43
.	.	.	.	8qqee/	.	.
4r	.	8B/L	.	2ddn\	.	.
.	.	8f#/	.	.	.	.
4B\	.	8dn/	.	.	.	.
.	.	8f#/J	.	.	.	.
4BB/	.	8d/L	.	2r	.	.
.	.	8b/	.	.	.	.
4r	.	8f#/	.	.	.	.
.	.	8d/J	.	.	.	.
!LO:LB:g=original	!	!	!	!LO:LB:g=original	!	!
=44	=44	=44	=44	=44	=44	=44
.	.	.	.	8qqff#/	.	.
!	!LO:MO:null:mod=f	!	!	!	!	!
*xywh-#68:590,1749,3380,388	*	*	*	*xywh-#16:563,2766,3403,339	*	*
2Dn\	.	8B/L	.	[2bb\	.	.
.	.	8f#/	.	.	.	.
.	.	8B/	.	.	.	.
.	.	8f#/J	.	.	.	.
!	!LO:MO:mod=.	!	!	!	!	!
2D#X\	f	8B/L	.	8bb\L]	.	.
.	.	8f#/	.	(8aan\	.	.
.	.	8B/	.	8ggn\	.	.
.	.	8A/J	.	8ff#\J)	.	.
=45	=45	=45	=45	=45	=45	=45
.	.	.	.	8qqff#/	.	.
2E\	.	8Gn/L	.	(2aa\	.	.
.	.	8B/	.	.	.	.
.	.	8e/	.	.	.	.
.	.	8B/J	.	.	.	.
2r	.	8G/L	.	4ggn\)	.	.
.	.	8B/	.	.	.	.
.	.	8e/	.	8r	.	.
.	.	8B/J	.	16ee\LL	.	.
.	.	.	.	16ff#\JJ	.	.
=46	=46	=46	=46	=46	=46	=46
2E\	.	4B/	.	4.ggn\	.	.
.	.	4r	.	.	.	.
.	.	.	.	8ff#'\	.	.
4r	.	(4gn/	p	8ee'\L	.	.
.	.	.	.	8ddn'\	.	.
4E#X\	p	4g#X/)	.	8cc#'\	.	.
.	.	.	.	8b'\J	.	.
=47	=47	=47	=47	=47	=47	=47
2F#;\	.	[2c#;/	.	(2b;/	.	.
!	!	!	!	!LO:SIC:s=4a#;)	!	!
4FF#;/	.	4c#;/]	.	4a#X/)	.	.
4r	.	4r	.	4r	.	.
=48	=48	=48	=48	=48	=48	=48
8BB/	.	8d#X/	.	(16B/LL	1	.
.	.	.	.	16c#/	.	.
8r	.	8r	.	16d#X/	.	.
.	.	.	.	16e/JJ	.	.
8BB/L	f	8d#'/L	.	16f#/LL	.	.
.	.	.	.	16e#X/)	.	.
8AA#X/J	.	8e'/J	.	(16g#/	.	.
.	.	.	.	16e#/JJ)	.	.
8BB/L	.	8d#'/L	.	(16f#/LL	.	.
.	.	.	.	16e#/)	.	.
8AA#/	.	8e'/	.	(16g#/	.	.
.	.	.	.	16e#/JJ)	.	.
8BB/	.	8d#'/	.	(16f#/LL	.	.
.	.	.	.	16e#/)	.	.
8AA#/J	.	8e'/J	.	(16g#/	.	.
.	.	.	.	16e#/JJ)	.	.
=49	=49	=49	=49	=49	=49	=49
4BB/	.	4d#/	.	(16f#\LL	.	.
.	.	.	.	16b\	.	.
.	.	.	.	16dd#\	.	.
.	.	.	.	16ff#\JJ)	.	.
4r	.	4r	.	(16ee\LL	.	.
.	.	.	.	16dd#\	.	.
.	.	.	.	16cc#\	.	.
.	.	.	.	16b\JJ)	.	.
2FF#/	.	4A#X/	.	(16b/LL	.	.
.	.	.	.	16a#X/	.	.
.	.	.	.	16g#/	.	.
.	.	.	.	16f#/JJ)	.	.
.	.	8c#/L	.	(16f#/LL	.	.
.	.	.	.	16e/	.	.
.	.	8e/J	.	16d#/	.	.
.	.	.	.	16c#/JJ)	.	.
!	!	!	!	!LO:LB:g=original	!	!
=50	=50	=50	=50	=50	=50	=50
!	!	!	!	!LO:SIC:s=(16BLL	!	!
*	*	*	*	*xywh-#16:571,3090,3388,336	*	*
8BB/	.	8d#/	.	16B/LL	.	.
.	.	.	.	16c#/	.	.
8r	.	8r	.	16d#/	.	.
.	.	.	.	16e/JJ	.	.
!	!	!LO:SIC:s=8d#'L	!	!	!	!
8BB/L	.	8d#/L	.	16f#/LL	.	.
!	!	!	!	!LO:SIC:s=16e#)	!	!
.	.	.	.	16e#X/	.	.
!	!	!LO:SIC:s=8e'J	!	!LO:SIC:s=(16g#	!	!
8AA#X/J	.	8e/J	.	16g#/	.	.
!	!	!	!	!LO:SIC:s=16e#JJ)	!	!
.	.	.	.	16e#/JJ	.	.
!	!	!LO:SIC:s=8d#'L	!	!LO:SIC:s=(16f#LL	!	!
8BB/L	.	8d#/L	.	16f#/LL	.	.
!	!	!	!	!LO:SIC:s=16e#)	!	!
.	.	.	.	16e#/	.	.
!	!	!LO:SIC:s=8e'	!	!LO:SIC:s=(16g#	!	!
8AA#/	.	8e/	.	16g#/	.	.
!	!	!	!	!LO:SIC:s=16e#JJ)	!	!
.	.	.	.	16e#/JJ	.	.
!	!	!LO:SIC:s=8d#'	!	!LO:SIC:s=(16f#LL	!	!
8BB/	.	8d#/	.	16f#/LL	.	.
!	!	!	!	!LO:SIC:s=16e#)	!	!
.	.	.	.	16e#/	.	.
!	!	!LO:SIC:s=8e'J	!	!LO:SIC:s=(16g#	!	!
8AA#/J	.	8e/J	.	16g#/	.	.
!	!	!	!	!LO:SIC:s=16e#JJ)	!	!
.	.	.	.	16e#/JJ	.	.
!	!	!LO:LB:g=original	!	!	!	!
=51	=51	=51	=51	=51	=51	=51
!	!	!	!	!LO:SIC:s=(16f#LL	!	!
*	*	*xywh-#47:392,2150,3351,378	*	*	*	*
4BB/	.	4d#/	.	16f#\LL	.	.
.	.	.	.	16b\	.	.
.	.	.	.	16dd#\	.	.
!	!	!	!	!LO:SIC:s=16ff#JJ)	!	!
.	.	.	.	16ff#\JJ	.	.
!	!	!	!	!LO:SIC:s=(16eeLL	!	!
4r	.	4r	.	16ee\LL	.	.
.	.	.	.	16dd#\	.	.
.	.	.	.	16cc#\	.	.
!	!	!	!	!LO:SIC:s=16bJJ)	!	!
.	.	.	.	16b\JJ	.	.
!	!	!	!	!LO:SIC:s=(16bLL	!	!
4AA#X/	.	4c#/	.	16b/LL	.	.
.	.	.	.	16a#X/	.	.
.	.	.	.	16g#/	.	.
!	!	!	!	!LO:SIC:s=16f#JJ)	!	!
.	.	.	.	16f#/JJ	.	.
!	!	!	!	!LO:SIC:s=(16f#LL	!	!
4FF#/	.	4A#X/	.	16f#/LL	.	.
.	.	.	.	16e/	.	.
.	.	.	.	16d#/	.	.
!	!	!	!	!LO:SIC:s=16c#JJ)	!	!
.	.	.	.	16c#/JJ	.	.
=52	=52	=52	=52	=52	=52	=52
4BB/	f	4B/	f	16B`/LL	.	.
!	!	!	!	!LO:SIC:s=(<16b	!	!
.	.	.	.	(16b/	.	.
.	.	.	.	16dd#/	.	.
.	.	.	.	16cc#/JJ	.	.
4r	.	4r	.	16b/LL	.	.
.	.	.	.	16a#X/	.	.
.	.	.	.	16g#/	.	.
.	.	.	.	16f#/JJ	.	.
!	!	!	!	!LO:TX:t=P:problem=mixed beam	!	!
4GG#/	.	4B/	f	16e/LL)	.	.
.	.	.	.	(16ee\	.	.
.	.	.	.	16gg#\	.	.
.	.	.	.	16ff#\JJ	.	.
4r	.	4r	.	16ee\LL	.	.
.	.	.	.	16dd#\	.	.
.	.	.	.	16cc#\	.	.
.	.	.	.	16b\JJ)	.	.
!	!	!	!	!LO:LB:g=original	!	!
=53	=53	=53	=53	=53	=53	=53
!	!	!	!	!LO:SIC:s=16a#`LL	!	!
*	*	*	*	*xywh-#16:548,3380,3395,343	*	*
4FF#/	.	4c#/	f	(16a#X`/LL	.	.
!	!	!	!	!LO:SIC:s=(<16a#	!	!
.	.	.	.	16a#/	.	.
.	.	.	.	16cc#/	.	.
.	.	.	.	16b/JJ	.	.
4r	.	4r	.	16a#/LL	.	.
.	.	.	.	16g#/	.	.
.	.	.	.	16f#/	.	.
.	.	.	.	16e/JJ	.	.
!	!	!	!	!LO:TX:t=P:problem=mixed beam	!	!
4BB/	.	4B/	f	16d#/LL)	.	.
!	!	!	!	!LO:SIC:s=(<16dd#	!	!
.	.	.	.	(16dd#\	.	.
.	.	.	.	16ff#\	.	.
.	.	.	.	16ee\JJ	.	.
4r	.	4r	.	16dd#\LL	.	.
.	.	.	.	16cc#\	.	.
.	.	.	.	16b\	.	.
.	.	.	.	16a#\JJ	.	.
!LO:LB:g=original	!	!	!	!	!	!
=54	=54	=54	=54	=54	=54	=54
*xywh-#68:607,2079,3403,319	*	*	*	*	*	*
4E\	.	4B/	f	16g#/LL)	.	.
.	.	.	.	(16g#/	.	.
.	.	.	.	16b/	.	.
.	.	.	.	16a/JJ	.	.
4r	.	4r	.	16g#/LL	.	.
.	.	.	.	16f#/	.	.
.	.	.	.	16e/	.	.
.	.	.	.	16d#/JJ	.	.
!	!	!	!LO:MO:null:mod=p	!LO:TX:t=P:problem=mixed beam	!	!
4E\	.	4G#/	.	16c#/LL)	.	.
.	.	.	.	(16cc#\	.	.
.	.	.	.	16ee\	.	.
.	.	.	.	16dd#\JJ	.	.
!	!	!	!LO:MO:mod=.	!	!	!
4E#X\	.	4c#/	p	16cc#\LL	.	.
.	.	.	.	16b\	.	.
.	.	.	.	16a#X\	.	.
.	.	.	.	16g#\JJ)	.	.
=55	=55	=55	=55	=55	=55	=55
[1F#	.	2A#X/	.	16f#/LL	.	.
.	.	.	.	16g#/	.	.
.	.	.	.	16a#X/	.	.
.	.	.	.	16b/JJ	.	.
.	.	.	.	16cc#\LL	.	.
.	.	.	.	16dd#\	.	.
.	.	.	.	16ee\	.	.
.	.	.	.	16cc#\JJ	.	.
.	.	4B/	.	16dd#\LL	.	.
.	.	.	.	16b\	.	.
.	.	.	.	16ff#\	.	.
.	.	.	.	16dd#\JJ	.	.
.	.	4d#X/	.	16bb\LL	.	.
.	.	.	.	16ff#\	.	.
.	.	.	.	16dd#\	.	.
.	.	.	.	16b\JJ	.	.
!	!	!	!	!LO:LB:g=original	!	!
=56	=56	=56	=56	=56	=56	=56
*	*	*	*	*xywh-#16:576,3705,3376,343	*	*
2F#\]	.	4c#/	.	16f#/LL	.	.
.	.	.	.	16g#/	.	.
.	.	.	.	16a#X/	.	.
.	.	.	.	16b/JJ	.	.
.	.	4A#X/	.	16cc#\LL	.	.
.	.	.	.	16ddn\	.	.
.	.	.	.	16ee\	.	.
.	.	.	.	16cc#\JJ	.	.
[2BB/	.	4B/	.	16ddn\LL	.	.
.	.	.	.	16b\	.	.
.	.	.	.	16ff#\	.	.
.	.	.	.	16dd\JJ	.	.
.	.	4dn/	.	16bb\LL	.	.
.	.	.	.	16ff#\	.	.
.	.	.	.	16dd\	.	.
.	.	.	.	16b\JJ	.	.
=57	=57	=57	=57	=57	=57	=57
4BB/]	.	2dn/	f	16ddn\LL	.	.
.	.	.	.	16b\	.	.
.	.	.	.	16ggn\	.	.
.	.	.	.	16dd\JJ	.	.
4r	.	.	.	16bb\LL	.	.
.	.	.	.	16ggn\	.	.
.	.	.	.	16dd\	.	.
.	.	.	.	16b\JJ	.	.
!	!LO:DY:b:t=rinf:mod=%s	!	!	!	!	!
2GGn/	rf	2B/ 2d	.	16dd\LL	.	.
.	.	.	.	16b\	.	.
.	.	.	.	16gg\	.	.
.	.	.	.	16dd\JJ	.	.
.	.	.	.	16bb\LL	.	.
.	.	.	.	16gg\	.	.
.	.	.	.	16dd\	.	.
.	.	.	.	16b\JJ	.	.
=58	=58	=58	=58	=58	=58	=58
!	!	!	!	!	!	!LO:MO:mod=!LO&colon;DY&colon;ed=brack
!	!	!	!	!	!	!null
!	!	!	!LO:MO:null:mod=f	!	!	!LO:MO:null:mod=f
2FF#/	.	2A/ 2dn	.	16ccn\LL	.	.
.	.	.	.	16a\	.	.
.	.	.	.	16aa\	.	.
.	.	.	.	16ff#\JJ	.	.
!	!	!	!	!LO:SIC:s=16cccLL	!	!
.	.	.	.	16ccc#\LL	.	.
.	.	.	.	16aa\	.	.
.	.	.	.	16ff#\	.	.
.	.	.	.	16ddn\JJ	.	.
!	!	!	!LO:MO:mod=.	!	!	!
2DDn/	.	2f#/	f	16cc/LL	.	.
.	.	.	.	16a/	.	.
.	.	.	.	16f#/	.	.
.	.	.	.	16dn/JJ	.	.
.	.	.	.	16cn/LL	.	.
.	.	.	.	16d/	.	.
.	.	.	.	16A/	.	.
.	.	.	.	16B/JJ	.	.
!	!	!	!	!LO:LB:g=original	!	!
=59	=59	=59	=59	=59	=59	=59
*	*	*	*	*xywh-#16:580,4014,3388,339	*	*
4GGn/	.	4dn/	.	16B/LL	.	.
.	.	.	.	16Gn/	.	.
.	.	.	.	16B/	.	.
.	.	.	.	16dn/JJ	.	.
4r	.	4r	.	16gn\LL	.	.
.	.	.	.	16b\	.	.
.	.	.	.	16ddn\	.	.
.	.	.	.	16ff#\JJ	.	.
2r	.	2r	.	8ggn\	.	.
.	.	.	.	4gg\	.	.
.	.	.	.	8gg\	.	.
=60	=60	=60	=60	=60	=60	=60
!	!	!	!LO:MO:null:mod=f	!	!	!
8GGn/L	.	8B/L	.	8ee#X\	.	.
!	!	!	!	!	!	!LO:DY:b:t=rinf:mod=%s
16BB/L	.	16dn/L	.	4ee#\	.	rf
!	!	!	!LO:MO:mod=.	!	!	!
16Dn/JJ	.	16gn/JJ	f	.	.	.
!LO:SIC:s=8GL	!	!	!	!	!	!
8G#\L	.	8b/L	.	.	.	.
16BB\L	.	16d/L	.	4ee#\	.	.
16D\JJ	.	16g/JJ	.	.	.	.
!LO:SIC:s=8GL	!	!	!	!	!	!
8G#\L	.	8b\L	.	.	.	.
!LO:SIC:s=8G	!	!	!	!	!	!
8G#\	.	8b\	.	4ee#\	.	.
!LO:SIC:s=8G	!	!	!	!	!	!
8G#\	.	8b\	.	.	.	.
!LO:SIC:s=8GJ	!	!	!	!	!	!
8G#\J	.	8b\J	.	8ee#\	.	.
=61	=61	=61	=61	=61	=61	=61
!	!LO:MO:mod=.	!	!	!	!	!
8r	p	8r	.	[2ff#\	.	p
!	!LO:MO:null:mod=p	!	!	!	!	!
8F#\L	.	8d#X/L	p	.	.	.
8F#\	.	8B/	.	.	.	.
8F#\J	.	8d#/J	.	.	.	.
4F#\	.	4f#/	.	16ff#\LL]	.	.
.	.	.	.	16b`\	.	.
.	.	.	.	16dd#X`\	.	.
.	.	.	.	16b`\JJ	.	.
4r	.	4r	.	(16ff#\LL	.	.
.	.	.	.	16dd#\	.	.
.	.	.	.	16b\	.	.
.	.	.	.	16dd#\JJ)	.	.
=62	=62	=62	=62	=62	=62	=62
!	!	!	!	!LO:SIC:s=[2f#	!	!
8r	.	8r	.	2f#/	.	.
8F#\L	.	8d#/L	.	.	.	.
8F#\	.	8B/	.	.	.	.
8F#\J	.	8d#/J	.	.	.	.
!	!	!	!	!LO:SIC:s=16f#LL]	!	!
4F#\	.	4f#/	.	16f#\LL	.	.
.	.	.	.	16b\	.	.
.	.	.	.	16dd#\	.	.
.	.	.	.	16b\JJ	.	.
4r	.	4r	.	16ff#\LL	.	.
.	.	.	.	16dd#\	.	.
.	.	.	.	16b\	.	.
.	.	.	.	16dd#\JJ	.	.
!	!	!LO:LB:g=original	!	!	!	!
=63	=63	=63	=63	=63	=63	=63
*	*	*xywh-#47:385,2448,3347,336	*	*	*	*
4F#\	.	4d#/	.	16f#\LL	.	.
.	.	.	.	16dd#\	.	.
.	.	.	.	16b\	.	.
.	.	.	.	16dd#\JJ	.	.
4r	.	8B/L	.	16ff#\LL	.	.
.	.	.	.	16dd#\	.	.
.	.	8d#/J	.	16b\	.	.
.	.	.	.	16dd#\JJ	.	.
2r	.	8f#/L	.	16f#\LL	.	.
.	.	.	.	16dd#\	.	.
.	.	8d#/	.	16b\	.	.
.	.	.	.	16dd#\JJ	.	.
.	.	8B/	.	16ff#\LL	.	.
.	.	.	.	16dd#\	.	.
.	.	8d#/J	.	16cc#\	.	.
.	.	.	.	16b\JJ	.	.
!LO:LB:g=original	!	!	!	!	!	!
=64	=64	=64	=64	=64	=64	=64
*xywh-#68:619,2360,3376,338	*	*	*	*	*	*
8F#\L	.	8b/L	.	1cc#T	.	.
8F#\	.	8f#/	.	.	.	.
8F#\	.	8b/	.	.	.	.
8F#\J	.	8f#/J	.	.	.	.
!	!LO:MO:mod=!null:null	!	!	!	!	!
!	!LO:HP:b:t=cres	!	!	!	!	!
8FF#/L	<	8a#X/L	f	.	.	.
8FF#/	.	8f#/	.	.	.	.
8FF#/	.	8e/	.	.	.	.
8FF#/J	.	8f#/J	.	.	.	.
!	!	!	!	!LO:LB:g=original	!	!
=65	=65	=65	=65	=65	=65	=65
*	*	*	*	*xywh-#16:592,4323,3341,320	*	*
2BB/	p	8d#/L	p	12b\L	.	.
.	.	.	.	12f#\	.	.
.	.	8f#/	.	.	.	.
.	.	.	.	12dd#\J	.	.
.	.	8d#/	.	12b\L	.	.
.	.	.	.	12f#\	.	.
.	.	8f#/J	.	.	.	.
.	.	.	.	12dd#\J	.	.
4AA#X/	.	8e/L	.	12cc#\L	.	.
.	.	.	.	12ee\	.	.
.	.	8f#/	.	.	.	.
.	.	.	.	12dd#\J	.	.
!	!	!	!	!LO:MO:mod=16qqdd#	!	!
.	.	.	.	8qqdd#/	.	.
4FF#/	.	8e/	.	12cc#\L	.	.
.	.	.	.	12b\	.	.
.	.	8f#/J	.	.	.	.
.	.	.	.	12cc#\J	.	.
=66	=66	=66	=66	=66	=66	=66
2BB/	.	8d#/L	.	12b\L	.	.
.	.	.	.	12f#\	.	.
.	.	8f#/	.	.	.	.
.	.	.	.	12dd#\J	.	.
.	.	8d#/	.	12b\L	.	.
.	.	.	.	12f#\	.	.
.	.	8f#/J	.	.	.	.
.	.	.	.	12dd#\J	.	.
4AA#X/	.	8e/L	.	12cc#\L	.	.
.	.	.	.	12ee\	.	.
.	.	8f#/	.	.	.	.
.	.	.	.	12dd#\J	.	.
!	!	!	!	!LO:MO:mod=16qqdd#	!	!
.	.	.	.	8qqdd#/	.	.
4FF#/	.	8e/	.	12cc#\L	.	.
.	.	.	.	12b\	.	.
.	.	8f#/J	.	.	.	.
.	.	.	.	12cc#\J	.	.
=67	=67	=67	=67	=67	=67	=67
4BB/	.	8d#/L	.	12b\L	.	.
.	.	.	.	12ff#\	.	.
.	.	8f#/	.	.	.	.
.	.	.	.	12dd#\J	.	.
!	!	!	!	!LO:MO:mod=16qqdd#	!	!
.	.	.	.	8qqdd#/	.	.
!	!	!	!	!	!	!LO:MO:null:mod=<
4FF#/	.	8e/	.	12cc#\L	.	.
!	!	!	!	!	!	!LO:MO:mod=!null:null
!	!	!	!	!	!	!LO:HP:a:t=cres
!	!	!	!	!	!	!LO:MO:mod=.
.	.	.	.	12b\	.	<
.	.	8f#/J	.	.	.	.
.	.	.	.	12cc#\J	.	.
4BB/	.	8d#/L	.	12b\L	.	.
.	.	.	.	12ff#\	.	.
.	.	8f#/	.	.	.	.
.	.	.	.	12dd#\J	.	.
!	!	!	!	!LO:MO:mod=16qqdd#	!	!
.	.	.	.	8qqdd#/	.	.
4FF#/	.	8e/	.	12cc#\L	.	.
.	.	.	.	12b\	.	.
.	.	8f#/J	.	.	.	.
.	.	.	.	12cc#\J	.	.
=68	=68	=68	=68	=68	=68	=68
4BB/	.	4d#/	.	4b\	.	f
4BB/	.	4d#/ 4f#	.	4b\ 4bb	.	.
2r	.	2r	.	2r	.	.
=69:|!	=69:|!	=69:|!	=69:|!	=69:|!	=69:|!	=69:|!
*>B	*	*>B	*	*>B	*	*
!	!	!	!	!	!	!LO:DY:b:t=rinf:mod=%s
4BB/	f	(4f#/	f	12dd#\L	.	rf
.	.	.	.	12aa\	.	.
.	.	.	.	12ff#\J	.	.
!	!	!	!	!LO:MO:mod=16qqff#	!	!
.	.	.	.	8qqff#/	.	.
4AA#X/	.	4gn/)	.	12ee\L	.	.
.	.	.	.	12dd#\	.	.
.	.	.	.	12ee\J	.	.
4BB/	.	(4f#/	.	12dd#\L	.	.
.	.	.	.	12aa\	.	.
.	.	.	.	12ff#\J	.	.
!	!	!	!	!LO:MO:mod=16qqff#	!	!
.	.	.	.	8qqff#/	.	.
4AA#/	.	4g/)	.	12ee\L	.	.
.	.	.	.	12dd#\	.	.
.	.	.	.	12ee\J	.	.
!	!	!	!	!LO:LB:g=original	!	!
=70	=70	=70	=70	=70	=70	=70
!	!	!	!LO:MO:null:mod=f	!	!	!
*	*	*	*	*xywh-#16:580,4613,3391,374	*	*
4BB/	f	4f#/	.	4dd#\	.	.
!	!	!	!LO:MO:mod=.	!	!	!
4AAn/	.	4f#/ 4a	f	4dd#\ 4cccn	.	.
2r	.	2r	.	2r	.	.
=71	=71	=71	=71	=71	=71	=71
4EE/ 4GGn 4E	f	4B/ 4gn	f	12ee\L	.	f
.	.	.	.	12bb\	.	.
.	.	.	.	12aa\J	.	.
4r	.	4r	.	12ggn\L	.	.
.	.	.	.	12ff#\	.	.
.	.	.	.	12ee\J	.	.
2r	.	2r	.	12dd#X\L	.	.
.	.	.	.	12ccn\	.	.
.	.	.	.	12b\J	.	.
.	.	.	.	12a/L	.	.
.	.	.	.	12gn/	.	.
.	.	.	.	12f#/J	.	.
=72	=72	=72	=72	=72	=72	=72
!	!LO:MO:null:mod=p	!	!	!	!	!
4E\	.	4r	.	(12e/L	.	.
.	.	.	.	12gn/)	.	.
.	.	.	.	12b`/J	.	.
!	!LO:MO:mod=.	!	!	!	!	!
2BB/	p	(4d#X/	p	(12f#/L	.	.
.	.	.	.	12a/)	.	.
.	.	.	.	12b`/J	.	.
.	.	4e/	.	(12g\L	.	.
.	.	.	.	12b\)	.	.
.	.	.	.	12ee`\J	.	.
4BB/	.	4f#/)	.	(12dd#\L	.	.
.	.	.	.	12ff#\)	.	.
.	.	.	.	12aa`\J	.	.
!	!	!LO:LB:g=original	!	!	!	!
=73	=73	=73	=73	=73	=73	=73
*	*	*xywh-#47:365,2734,3370,332	*	*	*	*
4E\	f	4e/	f	12ggn\L	.	.
.	.	.	.	12bb\	.	.
.	.	.	.	12aa\J	.	.
4r	.	4r	.	12gg\L	.	.
.	.	.	.	12ff#\	.	.
.	.	.	.	12ee\J	.	.
2r	.	2r	.	12dd#X\L	.	.
.	.	.	.	12ccn\	.	.
.	.	.	.	12b\J	.	.
.	.	.	.	12a/L	.	.
!	!	!	!	!LO:SIC:s=12g	!	!
.	.	.	.	12g#/	.	.
.	.	.	.	12f#/J	.	.
!LO:LB:g=original	!	!	!	!	!	!
=74	=74	=74	=74	=74	=74	=74
!	!LO:MO:null:mod=p	!	!	!	!	!
*xywh-#68:607,2633,3391,315	*	*	*	*	*	*
4E\	.	4r	.	12e/L	.	.
!	!	!	!	!LO:SIC:s=12g	!	!
.	.	.	.	12g#/	.	.
.	.	.	.	12b/J	.	.
!	!LO:MO:mod=.	!	!	!	!	!
2BB/	p	4d#/	.	12f#/L	.	.
.	.	.	.	12a/	.	.
.	.	.	.	12b/J	.	.
.	.	4e/	.	12gn\L	.	.
.	.	.	.	12b\	.	.
.	.	.	.	12ee\J	.	.
4BB/	.	4f#/	.	12dd#X\L	.	.
.	.	.	.	12ff#\	.	.
.	.	.	.	12aa\J	.	.
!	!	!	!	!LO:PB:g=original	!	!
=75	=75	=75	=75	=75	=75	=75
*	*	*	*	*xywh-#17:498,462,3572,457	*	*
4E\	.	4B/ 4e	.	12ggn\L	.	.
.	.	.	.	12bb\	.	.
.	.	.	.	12aa\J	.	.
4r	.	4r	.	12gg\L	.	.
.	.	.	.	12ff#\	.	.
.	.	.	.	12ee\J	.	.
!	!LO:DY:b:t=rinf:mod=%s	!	!	!	!	!
2Dn\	rf	4B/ 4e	.	12gg#X\L	.	.
.	.	.	.	12bb\	.	.
.	.	.	.	12aa\J	.	.
.	.	4r	.	12gg#\L	.	.
.	.	.	.	12ff#\	.	.
.	.	.	.	12ee\J	.	.
=76	=76	=76	=76	=76	=76	=76
4C#/	.	4B/ 4e#X	.	12gg#X\L	.	.
.	.	.	.	12bb\	.	.
.	.	.	.	12aa\J	.	.
4r	.	4r	.	12gg#\L	.	.
.	.	.	.	12ff#\	.	.
.	.	.	.	12ee#X\J	.	.
!	!LO:DY:b:t=rinf:mod=%s	!	!	!	!	!
2BB#X/	rf	2d#X/	f	12ff#\L	.	.
.	.	.	.	12aa\	.	.
.	.	.	.	12gg#\J	.	.
!	!	!	!	!LO:SIC:s=16qqgg#	!	!
.	.	.	.	8qqgg#/	.	.
.	.	.	.	12ff#\L	.	.
.	.	.	.	12ee#\	.	.
.	.	.	.	12ff#\J	.	.
=77	=77	=77	=77	=77	=77	=77
4C#/	<	8r	.	12cc#\L	.	.
.	.	.	.	12ee#X\	.	.
.	.	8g#'/L	.	.	.	.
.	.	.	.	12gg#\J	.	.
4C#/	.	8e#X'/	.	12ccc#\L	.	.
.	.	.	.	12gg#\	.	.
.	.	8c#'/J	.	.	.	.
.	.	.	.	12ee#\J	.	.
4C#/	.	8e#/L	.	12ccc#\L	.	.
.	.	.	.	12bb\	.	.
.	.	8g#/	.	.	.	.
.	.	.	.	12gg#\J	.	.
!	!LO:MO:mod=.	!	!	!	!	!
4C#/	[[	8f#/	.	12ccc#\L	.	.
.	.	.	.	12aa\	.	.
.	.	8a/J	.	.	.	.
!	!LO:MO:null:mod=[[	!	!	!	!	!
.	.	.	.	12ff#\J	.	.
=78	=78	=78	=78	=78	=78	=78
4C#/	.	8e#X/L	.	12cc#\L	.	.
.	.	.	.	12ee#X\	.	.
.	.	8g#/	.	.	.	.
.	.	.	.	12gg#\J	.	.
4C#/	.	8e#/	.	12ccc#\L	.	.
.	.	.	.	12gg#\	.	.
.	.	8c#/J	.	.	.	.
.	.	.	.	12ee#\J	.	.
4C#/	.	8e#/L	.	12ccc#\L	.	.
.	.	.	.	12bb\	.	.
.	.	8g#/	.	.	.	.
.	.	.	.	12gg#\J	.	.
4C#/	.	8f#/	.	12ccc#\L	.	.
.	.	.	.	12aa\	.	.
.	.	8a/J	.	.	.	.
.	.	.	.	12ff#\J	.	.
!	!	!	!	!LO:LB:g=original	!	!
=79	=79	=79	=79	=79	=79	=79
*	*	*	*	*xywh-#17:545,863,3465,401	*	*
4C#/	.	4g#/	.	12cc#\L	.	.
.	.	.	.	12ccc#\	.	.
.	.	.	.	12bb#X\J	.	.
4r	.	4r	.	12ccc#\L	.	.
.	.	.	.	12gg#\	.	.
.	.	.	.	12ee#X\J	.	.
4C#/	.	4g#/	f	12cc#\L	.	.
.	.	.	.	12cc#\	.	.
.	.	.	.	12b#X\J	.	.
4C#/	.	4g#/	.	12cc#/L	.	.
.	.	.	.	12g#/	.	.
.	.	.	.	12e#X/J	.	.
=80	=80	=80	=80	=80	=80	=80
!LO:SIC:s=2C#;	!	!	!	!	!	!
2C#/	.	2g#;/	.	2c#;/	.	.
!LO:SIC:s=2r	!	!	!	!	!	!
2r;	.	2r	.	2r	.	.
=81	=81	=81	=81	=81	=81	=81
!	!	!	!	!LO:MO:mod=!LO&colon;TX&colon;b&colon;i&colon;t=dolce	!	!
!	!LO:MO:mod=p	!	!	!LO:TX:a:i:t=dol	!	!
4AA/	f	4c#/	p	4.een\	.	.
4r	.	4r	.	.	.	.
.	.	.	.	8cc#\	.	.
2r	.	2r	.	4.a\	.	.
.	.	.	.	8cc#\	.	.
=82	=82	=82	=82	=82	=82	=82
4r	.	4r	.	4e/	.	.
4AA/	.	4c#/ 4en	.	4r	.	.
4AA/	.	4c#/ 4e	.	8r	.	.
.	.	.	.	8e/L	.	.
4r	.	4r	.	8a/	.	.
.	.	.	.	8b/J	.	.
=83	=83	=83	=83	=83	=83	=83
!	!	!LO:TX:b:i:t=dol:mod=dolce	!	!	!	!
4r	.	4a/	.	4cc#\	.	.
4E\	.	4a/	.	4cc#\	.	.
!	!	!LO:MO:mod=16qqb	!	!LO:SIC:s=16qqdd	!	!
.	.	8qqb/	.	8qqdd#/	.	.
4C#/	.	8a/L	.	8cc#\L	.	.
.	.	8g#/	.	8b\	.	.
4AA/	.	8a/	.	8cc#\	.	.
.	.	8b/J	.	8ddn\J	.	.
=84	=84	=84	=84	=84	=84	=84
!	!	!	!	!LO:SIC:s=8qqdd	!	!
.	.	.	.	8qqdd#/	.	.
4EE/	.	2g#/	.	2b\	.	.
4E\	.	.	.	.	.	.
4EE/	.	2r	.	2r	.	.
4r	.	.	.	.	.	.
=85	=85	=85	=85	=85	=85	=85
4r	.	4r	.	4.ddn\	.	.
4E\	.	4B/ 4g#	.	.	.	.
.	.	.	.	8b\	.	.
4r	.	4r	.	4.g#/	.	.
4E\	.	4B/ 4dn	.	.	.	.
.	.	.	.	8e/	.	.
!LO:LB:g=original	!	!LO:LB:g=original	!	!	!	!
=86	=86	=86	=86	=86	=86	=86
*xywh-#68:600,2902,3391,384	*	*xywh-#47:388,3016,3339,336	*	*	*	*
4c#\	.	4r	.	4.a/	.	.
4A\	.	4c#/	.	.	.	.
.	.	.	.	8cc#\	.	.
4G#\	.	4B/	.	4.ee\	.	.
4E\	.	8e/L	.	.	.	.
.	.	8g#/J	.	8ddn\	.	.
=87	=87	=87	=87	=87	=87	=87
4A\	.	4a/	.	4cc#\	.	.
4r	.	4e/	.	4cc#\	.	.
!	!	!	!	!LO:MO:mod=16qqcc#	!	!
.	.	.	.	8qqcc#/	.	.
!	!	!LO:SIC:s=4d	!	!	!	!
4E\	.	4d#/	.	8b\L	.	.
.	.	.	.	8a\	.	.
4r	.	4e/	.	8b\	.	.
.	.	.	.	8cc#\J	.	.
!	!	!	!	!LO:LB:g=original	!	!
=88	=88	=88	=88	=88	=88	=88
*	*	*	*	*xywh-#17:540,1180,3465,382	*	*
4.A\	.	8r	.	2a/	.	.
*	*	*tremolo	*	*	*	*
.	.	8c#'/L 8e	.	.	.	.
.	.	8c#'/ 8e	.	.	.	.
8E\	.	8c#'/J 8e	.	.	.	.
!	!LO:DY:b:t=rinf:mod=%s	!	!	!	!	!
4.C#/	rf	8c#'/L 8e	.	2r	.	.
.	.	8c#'/ 8e	.	.	.	.
.	.	8c#'/ 8e	.	.	.	.
8E\	.	8c#'/J 8e	.	.	.	.
!	!	!LO:MO:mod=*null:null	!	!	!	!
*	*	*Xtremolo	*	*	*	*
=89	=89	=89	=89	=89	=89	=89
4GG#X/	.	8dn/L 8e	.	4.bb\	.	.
.	.	8d/ 8e	.	.	.	.
4r	.	8d/ 8e	.	.	.	.
.	.	8d/J 8e	.	8gg#\	.	.
!	!	!LO:MO:mod=*null:null	!	!	!	!
*	*	*tremolo	*	*	*	*
4E\	.	8d/L 8e	.	4.ee\	.	.
.	.	8d/ 8e	.	.	.	.
4r	.	8d/ 8e	.	.	.	.
.	.	8d/J 8e	.	8ddn\	.	.
=90	=90	=90	=90	=90	=90	=90
4.A\	.	8cn/L 8e	.	4ccn\	.	.
.	.	8c/ 8e	.	.	.	.
.	.	8c/ 8e	.	4r	.	.
8E\	.	8c/J 8e	.	.	.	.
4.Cn/	.	8c/L 8e	.	2r	.	.
.	.	8c/ 8e	.	.	.	.
.	.	8c/ 8e	.	.	.	.
8E\	.	8c/J 8e	.	.	.	.
=91	=91	=91	=91	=91	=91	=91
4GGn/	.	8B-X/L 8e	.	4.ggn\	.	.
.	.	8B-/ 8e	.	.	.	.
4r	.	8B-/ 8e	.	.	.	.
.	.	8B-/J 8e	.	8ee\	.	.
4E\	.	8cn/L 8gn	.	4.ccn\	.	.
.	.	8c/ 8g	.	.	.	.
4r	.	8c/ 8g	.	.	.	.
.	.	8c/J 8g	.	8b-X\	.	.
=92	=92	=92	=92	=92	=92	=92
4.Fn\	.	8r	.	4a/	.	.
*	*	*Xtremolo	*	*	*	*
.	.	8A/L 8fn	.	.	.	.
.	.	8A/ 8f	.	4r	.	.
8Cn/	.	8A/J 8f	.	.	.	.
*	*	*tremolo	*	*	*	*
4.AA/	.	8A/L 8f	.	2r	.	.
.	.	8A/ 8f	.	.	.	.
.	.	8A/ 8f	.	.	.	.
8C/	.	8A/J 8f	.	.	.	.
*	*	*Xtremolo	*	*	*	*
=93	=93	=93	=93	=93	=93	=93
!	!	!	!	!	!	!LO:MO:mod=!null:null
!	!	!	!	!LO:TX:b:t=cres_cen_do:problem:dynamics with line extensions:mod=	!	!LO:HP:b:t=cres-cen-do:ext=ud
4FFn/	.	2cn/	f	4.aa\	.	<
!LO:SIC:s=4F	!	!	!	!	!	!
4Fny\	.	.	.	.	.	.
.	.	.	.	8ffn\	.	.
2r	.	2r	.	4.ccn\	.	.
.	.	.	.	8ff\	.	.
=94	=94	=94	=94	=94	=94	=94
4EE/	f	2cn/	.	4.aa\	.	.
4E\	.	.	.	.	.	.
.	.	.	.	8ee\	.	.
2r	.	2r	.	4.ccn\	.	.
.	.	.	.	8ee\	.	.
!LO:LB:g=original	!	!	!	!	!	!
=95	=95	=95	=95	=95	=95	=95
!	!	!	!LO:MO:null:mod=f	!	!	!
*xywh-#68:584,3195,3426,338	*	*	*	*	*	*
2D#X\	.	4.cn/	.	4.aa\	.	.
!	!	!	!LO:MO:mod=.	!	!	!LO:MO:mod=.
.	.	8f#X/	f	8ff#X\	.	[
2Cn/	.	4.a/	.	4.dd#X\	.	.
.	.	8f#/	.	8ff#\	.	.
=96	=96	=96	=96	=96	=96	=96
!	!LO:DY:b:t=rinf:mod=%s	!	!	!	!	!
2BB/	rf	8d#X/L	p	4.aa\	.	>
.	.	8e/	.	.	.	.
.	.	8f#/	.	.	.	.
.	.	8g#X/J	.	8gg#X\	.	.
2r	.	4a/	.	8ff#\L	.	.
.	.	.	.	8ee\	.	.
.	.	4r	.	8dd#X\	.	.
!	!	!	!	!	!	!LO:MO:mod=]]
.	.	.	.	8cc#X\J	.	]
!	!	!LO:LB:g=original	!	!	!	!
=97	=97	=97	=97	=97	=97	=97
!LO:TX:a:t=1:mod=	!	!LO:TX:a:t=1:mod=	!	!	!	!
*	*	*xywh-#47:359,3288,3378,344	*	*	*	*
1r	.	1r	.	4.b/	.	p
.	.	.	.	8g#/	.	.
.	.	.	.	4.e/	.	.
.	.	.	.	8g#/	.	.
!	!	!	!	!LO:LB:g=original	!	!
=98	=98	=98	=98	=98	=98	=98
*	*	*	*	*xywh-#17:526,1549,3446,317	*	*
4r	.	4r	.	4B/	.	.
4E\	p	4G#/	p	4r	.	.
4E\	.	4G#/	.	8r	.	.
.	.	.	.	8B/L	.	.
4r	.	4r	.	8e/	.	.
.	.	.	.	8f#/J	.	.
=99	=99	=99	=99	=99	=99	=99
4E\	.	8e'/L	.	4g#/	.	.
.	.	8B'/	.	.	.	.
4r	.	8e'/	.	4g#/	.	.
.	.	8B'/J	.	.	.	.
!	!	!	!	!LO:MO:mod=16qqa	!	!
.	.	.	.	8qqa/	.	.
4EE/	.	8e'/L	.	8g#/L	.	.
.	.	8B'/	.	8f#/	.	.
4r	.	8e'/	.	8g#/	.	.
.	.	8B'/J	.	8a/J	.	.
=100	=100	=100	=100	=100	=100	=100
.	.	.	.	8qqa/	.	.
4BB/	.	8d#/L	.	2f#/	.	.
.	.	8B/	.	.	.	.
4BB/	.	8d#/	.	.	.	.
.	.	8B/J	.	.	.	.
4BB/	.	4d#/	.	2r	.	.
4r	.	4r	.	.	.	.
=101	=101	=101	=101	=101	=101	=101
4r	.	4r	.	4.a/	.	.
4BB/	.	4d#/	.	.	.	.
.	.	.	.	8f#/	.	.
4r	.	4r	.	4.d#/	.	.
4D#X\	.	4B/	.	.	.	.
.	.	.	.	8B/	.	.
=102	=102	=102	=102	=102	=102	=102
4E\	.	8r	.	4.e/	.	.
.	.	8G#/L	.	.	.	.
4r	.	8B/	.	.	.	.
.	.	8e/J	.	8g#/	.	.
4D#\	.	8f#/L	.	4.b/	.	.
.	.	8B/	.	.	.	.
4BB/	.	8d#/	.	.	.	.
.	.	8f#/J	.	8a/	.	.
=103	=103	=103	=103	=103	=103	=103
4E\	.	8e/L	.	4g#/	.	.
.	.	8B/	.	.	.	.
4r	.	8G#/	.	4g#/	.	.
.	.	8B/J	.	.	.	.
!	!	!	!	!LO:MO:mod=16qqg#	!	!
.	.	.	.	8qqg#/	.	.
2BB/	.	8A/L	.	8f#/L	.	.
.	.	8B/	.	8e/	.	.
.	.	8A/	.	8f#/	.	.
.	.	8B/J	.	8g#/J	.	.
=104	=104	=104	=104	=104	=104	=104
!LO:TX:t=P:problem=mixed beam	!	!	!	!	!	!
8EE/L	.	2G#/	.	2e/	.	.
(8E\	.	.	.	.	.	.
8D#\	.	.	.	.	.	.
8E\J)	.	.	.	.	.	.
(8F#\L	.	4A/	.	2r	.	.
8E\	.	.	.	.	.	.
8G#\	.	4B/	.	.	.	.
8E\J)	.	.	.	.	.	.
=105	=105	=105	=105	=105	=105	=105
2EE/	.	8c#/L	.	1cc#	.	.
.	.	(8a/	.	.	.	.
.	.	8g#/	.	.	.	.
.	.	8a/J)	.	.	.	.
!	!	!LO:SIC:s=(8bL	!	!	!	!
4E\	.	8b/L	.	.	.	.
.	.	8a/	.	.	.	.
4E\	.	8cc#/	.	.	.	.
!	!	!LO:SIC:s=8aJ)	!	!	!	!
.	.	8a/J	.	.	.	.
!LO:LB:g=original	!	!	!	!	!	!
=106	=106	=106	=106	=106	=106	=106
*xywh-#68:617,3474,3326,358	*	*	*	*	*	*
2D#\	.	2f#/	p	8r	.	.
.	.	.	.	(8b\L	.	.
.	.	.	.	8a#X\	.	.
!	!	!	!	!LO:SIC:s=8bJ)	!	!
.	.	.	.	8b\J	.	.
!	!	!	!	!LO:SIC:s=(8dd#L	!	!
2BB/	.	2f#/ 2a	.	8dd#\L	.	.
.	.	.	.	8ee\	.	.
.	.	.	.	8ff#\	.	.
!	!	!	!	!LO:SIC:s=8aJ)	!	!
.	.	.	.	8a#\J)	.	.
=107	=107	=107	=107	=107	=107	=107
.	.	.	.	8qqa/	.	.
!	!	!LO:TX:a:t=1:mod=	!	!	!	!
8r	.	1r	.	1g#	.	.
(8E\L	.	.	.	.	.	.
8D#\	.	.	.	.	.	.
8E\J)	.	.	.	.	.	.
(8F#\L	.	.	.	.	.	.
8E\	.	.	.	.	.	.
8G#\	.	.	.	.	.	.
8B\J)	.	.	.	.	.	.
=108	=108	=108	=108	=108	=108	=108
2e\	.	2g#/ 2b	.	8r	.	.
.	.	.	.	(8ee\L	.	.
.	.	.	.	8dd#\	.	.
.	.	.	.	8ee\J	.	.
4E\	.	4d#/ 4b	.	8ff#\L	.	.
.	.	.	.	8ee\	.	.
4E\	.	4e/ 4b	.	8gg#\	.	.
.	.	.	.	8ee\J)	.	.
!	!	!LO:LB:g=original	!	!LO:LB:g=original	!	!
=109	=109	=109	=109	=109	=109	=109
*	*	*xywh-#47:359,3582,3358,340	*	*xywh-#17:531,1824,3465,335	*	*
2A\	.	8r	.	1cc#	.	.
.	.	(8a/L	.	.	.	.
.	.	8g#/	.	.	.	.
.	.	8a/J)	.	.	.	.
!	!	!	!LO:MO:null:mod=f	!	!	!
2AA/	.	(8b/L	.	.	.	.
!	!	!	!LO:MO:mod=.	!	!	!
.	.	8a/	f	.	.	.
.	.	8cc#/	.	.	.	.
.	.	8a/J)	.	.	.	.
=110	=110	=110	=110	=110	=110	=110
2BB/	p	2d#/	p	8r	.	.
.	.	.	.	(8f#/L	.	.
.	.	.	.	8e#X/	.	.
.	.	.	.	8f#/J	.	.
4BB/	.	2A/	.	8g#/L	.	.
.	.	.	.	8f#/	.	.
4BB/	.	.	.	8b/	.	.
.	.	.	.	8d#/J)	.	.
=111	=111	=111	=111	=111	=111	=111
!	!LO:MO:null:mod=f	!	!	!	!	!
8EE/L	.	8G#/L	f	[2e/	.	f
!	!LO:MO:mod=.	!	!	!	!	!
16GG#/L	f	16B/L	.	.	.	.
16BB/JJ	.	16e/JJ	.	.	.	.
8E\L	.	8g#/L	.	.	.	.
8E\J	.	8g#/J	.	.	.	.
4E\	.	4g#/	.	8.e/L]	.	.
.	.	.	.	16B/Jk	.	.
4r	.	4r	.	4BT</	.	.
=112	=112	=112	=112	=112	=112	=112
8EE/L	.	8r	.	[2g#/	.	.
16GG#/L	.	16B/LL	.	.	.	.
16BB/JJ	.	16e/JJ	.	.	.	.
8E\L	.	8g#/L	.	.	.	.
8E\J	.	8B/J 8g#	.	.	.	.
4E\	.	4B/ 4g#	.	8.g#/L]	.	.
.	.	.	.	16e/Jk	.	.
4r	.	4r	.	4eT</	.	.
=113	=113	=113	=113	=113	=113	=113
4E\	.	4B/ 4g#	.	8.b\L	.	.
.	.	.	.	16g#\K	.	.
4r	.	4r	.	8.ee\	.	.
.	.	.	.	16b\Jk	.	.
4r	.	4r	.	8.gg#\L	.	.
.	.	.	.	16ee\K	.	.
4E\	.	4B/ 4g#	.	8.b\	.	.
.	.	.	.	16g#\Jk	.	.
=114	=114	=114	=114	=114	=114	=114
!	!	!LO:MO:mod=16qqf#	!	!LO:MO:mod=16qqa	!	!
.	.	8qqf#/	.	8qqa/	.	.
4BB/	.	8e/L	.	8g#/L	.	.
.	.	16d#/L	.	16f#/L	.	.
.	.	16e/JJ	.	16g#/JJ	.	.
4B\	.	8d#/L	.	8f#/L	.	.
.	.	8d#/J	.	8f#/J	.	.
4BB/	.	8d#/L	.	4f#/	.	.
.	.	8d#/	.	.	.	.
4r	.	8e/	.	4r	.	.
.	.	8e/J	.	.	.	.
=115	=115	=115	=115	=115	=115	=115
2B\	.	2f#/	p	(16d#/LL	.	.
.	.	.	.	16f#/)	.	.
.	.	.	.	16a`/	.	.
.	.	.	.	16ccn`/JJ	.	.
.	.	.	.	(16b\LL	.	.
.	.	.	.	16a\)	.	.
.	.	.	.	16dd#`\	.	.
.	.	.	.	16a`\JJ	.	.
2BB/	.	2d#/ 2f#	.	(16ff#\LL	.	.
.	.	.	.	16a\)	.	.
.	.	.	.	16dd#`\	.	.
.	.	.	.	16a`\JJ	.	.
.	.	.	.	(16b\LL	.	.
.	.	.	.	16a\)	.	.
.	.	.	.	16ccn`\	.	.
.	.	.	.	16a`\JJ	.	.
!LO:LB:g=original	!	!	!	!LO:LB:g=original	!	!
=116	=116	=116	=116	=116	=116	=116
*xywh-#68:602,3759,3310,354	*	*	*	*xywh-#17:535,2122,3525,349	*	*
4E\	.	4B/ 4g#	.	16g#/LL	.	.
.	.	.	.	16e/	.	.
.	.	.	.	16g#/	.	.
.	.	.	.	16b/JJ	.	.
4r	.	4r	.	16ee\LL	.	.
.	.	.	.	16dd#\	.	.
.	.	.	.	16cc#X\	.	.
.	.	.	.	16b\JJ	.	.
2r	.	2r	.	16ee\LL	.	.
.	.	.	.	16dd#\	.	.
.	.	.	.	16cc#\	.	.
.	.	.	.	16b\JJ	.	.
.	.	.	.	16a/LL	.	.
.	.	.	.	16g#/	.	.
.	.	.	.	16f#/	.	.
.	.	.	.	16e/JJ	.	.
=117	=117	=117	=117	=117	=117	=117
2BB/	.	2f#/	.	16d#/LL	.	.
.	.	.	.	16f#/	.	.
.	.	.	.	16a/	.	.
.	.	.	.	16ccn/JJ	.	.
.	.	.	.	16b\LL	.	.
.	.	.	.	16a\	.	.
.	.	.	.	16dd#\	.	.
.	.	.	.	16a\JJ	.	.
2D#\	.	2d#/ 2f#	.	16ff#\LL	.	.
.	.	.	.	16a\	.	.
.	.	.	.	16dd#\	.	.
.	.	.	.	16a\JJ	.	.
.	.	.	.	16b/LL	.	.
.	.	.	.	16a/	.	.
.	.	.	.	16ccn/	.	.
.	.	.	.	16a/JJ	.	.
=118	=118	=118	=118	=118	=118	=118
4E\	.	4B/ 4g#	.	16g#/LL	.	.
.	.	.	.	16e/	.	.
.	.	.	.	16g#/	.	.
.	.	.	.	16b/JJ	.	.
4r	.	4r	.	16ee\LL	.	.
.	.	.	.	16dd#\	.	.
.	.	.	.	16cc#X\	.	.
.	.	.	.	16b\JJ	.	.
2r	.	2r	.	16ee\LL	.	.
.	.	.	.	16dd#\	.	.
.	.	.	.	16cc#\	.	.
.	.	.	.	16b\JJ	.	.
.	.	.	.	16a/LL	.	.
.	.	.	.	16g#/	.	.
.	.	.	.	16f#/	.	.
.	.	.	.	16e/JJ	.	.
!	!	!	!	!LO:LB:g=original	!	!
=119	=119	=119	=119	=119	=119	=119
!LO:TX:t=P:problem=mixed beam	!	!	!	!	!	!
*	*	*	*	*xywh-#17:531,2460,3451,317	*	*
8AA/L	f	8e/L	f	16cc#/LL	.	.
.	.	.	.	16a/	.	.
8A\J	.	8e/J	.	16e/	.	.
.	.	.	.	16c#/JJ	.	.
!	!	!	!	!LO:TX:t=P:problem=mixed beam	!	!
8r	.	8r	.	8A/L	.	.
8A\	.	8e/	.	8cc#\J	.	.
!LO:TX:t=P:problem=mixed beam	!	!	!	!	!	!
8AA/L	.	8f#/L	.	16dd#/LL	.	.
.	.	.	.	16b/	.	.
8A\J	.	8f#/J	.	16f#/	.	.
.	.	.	.	16d#/JJ	.	.
!	!	!	!	!LO:TX:t=P:problem=mixed beam	!	!
8r	.	8r	.	8B/L	.	.
8A\	.	8B/ 8f#	.	8dd#\J	.	.
=120	=120	=120	=120	=120	=120	=120
4G#\	.	4B/ 4g#	.	(16ee\LL	.	.
.	.	.	.	16dd#\	.	.
.	.	.	.	16ee\	.	.
.	.	.	.	16dd#\JJ	.	.
4r	.	4r	.	16ee\LL	.	.
.	.	.	.	16dd#\	.	.
.	.	.	.	16ee\	.	.
.	.	.	.	16dd#\JJ)	.	.
2E\	.	2g#/	.	(16ee\LL	.	.
.	.	.	.	16ff#\	.	.
.	.	.	.	16gg#\	.	.
.	.	.	.	16ff#\JJ	.	.
.	.	.	.	16ee\LL	.	.
.	.	.	.	16dd#\	.	.
.	.	.	.	16cc#\	.	.
.	.	.	.	16b#X\JJ)	.	.
!	!	!LO:LB:g=original	!	!	!	!
=121	=121	=121	=121	=121	=121	=121
*	*	*xywh-#47:359,3829,3370,374	*	*	*	*
4A\	.	4e/	.	(16cc#\LL	.	.
.	.	.	.	16b#X\	.	.
.	.	.	.	16cc#\	.	.
.	.	.	.	16b#\JJ	.	.
4r	.	4r	.	16cc#\LL	.	.
.	.	.	.	16b#\	.	.
.	.	.	.	16cc#\	.	.
.	.	.	.	16b#\JJ)	.	.
2r	.	2r	.	(16cc#\LL	.	.
.	.	.	.	16dd#\	.	.
.	.	.	.	16ee\	.	.
.	.	.	.	16dd#\JJ	.	.
.	.	.	.	16cc#\LL	.	.
.	.	.	.	16bn\	.	.
.	.	.	.	16a\	.	.
.	.	.	.	16g#\JJ)	.	.
!	!	!	!	!LO:LB:g=original	!	!
=122	=122	=122	=122	=122	=122	=122
*	*	*	*	*xywh-#17:550,2749,3460,340	*	*
4AA/	.	4c#/	.	(16f#/LL	.	>
.	.	.	.	16e#X/)	.	.
.	.	.	.	(16g#/	.	.
.	.	.	.	16f#/JJ)	.	.
4r	.	4r	.	(16a/LL	.	.
.	.	.	.	16g#/)	.	.
.	.	.	.	(16b/	.	.
.	.	.	.	16a/JJ)	.	.
2r	.	2r	.	(16cc#/LL	.	.
!	!	!	!	!LO:SIC:s=16b#)	!	!
.	.	.	.	16b/)	.	.
.	.	.	.	(16dd#/	.	.
.	.	.	.	16cc#/JJ)	.	.
.	.	.	.	(16b/LL	.	.
.	.	.	.	16a/)	.	.
.	.	.	.	(16g#/	.	.
.	.	.	.	16f#/JJ)	.	.
=123	=123	=123	=123	=123	=123	=123
4GG#/	.	8B/L	.	12b\L	.	.
.	.	.	.	12ee\	.	.
.	.	8e/J	.	.	.	.
.	.	.	.	12b\J	.	.
4AA/	.	4c#/	.	12cc#/L	.	.
.	.	.	.	12a/	.	.
.	.	.	.	12f#/J	.	.
4BB/	.	8B/L	.	2f#T/	.	.
.	.	8B/	.	.	.	.
4BB/	.	8A/	.	.	.	.
!	!	!	!	!	!	!LO:MO:null:mod=]]
.	.	8A/J	.	.	.	.
=124	=124	=124	=124	=124	=124	=124
!	!	!	!	!	!	!LO:MO:mod=.
4E\	.	8r	.	4e/	.	]]
.	.	8B/L	.	.	.	.
4r	.	8B/	.	4r	.	.
.	.	8B/J	.	.	.	.
4D#X\	.	8A/L	.	2r	.	.
.	.	8B/	.	.	.	.
4r	.	8A/	.	.	.	.
.	.	8B/J	.	.	.	.
=125	=125	=125	=125	=125	=125	=125
!	!	!	!	!LO:MO:mod=!LO&colon;TX&colon;b&colon;i&colon;t=dolce	!	!
!	!	!	!	!LO:TX:a:i:t=dol	!	!
4E\	.	8Gn/L	.	4.b\	.	.
.	.	8B/	.	.	.	.
4r	.	8e/	.	.	.	.
.	.	8B/J	.	8gn/	.	.
2r	.	8G/L	.	4.e/	.	.
.	.	8B/	.	.	.	.
!	!	!LO:SIC:s=8G	!	!	!	!
.	.	8G-X/	.	.	.	.
.	.	8B/J	.	8g/	.	.
=126	=126	=126	=126	=126	=126	=126
!LO:TX:b:i:t=dol:mod=dolce	!	!	!	!	!	!
4.E\	.	8Gn/L	.	4B/	.	.
.	.	8B/	.	.	.	.
.	.	8e/	.	4r	.	.
8BB/	.	8B/J	.	.	.	.
4.GGn/	.	8G/	.	8r	.	.
.	.	4B/	.	8B/L	.	.
.	.	.	.	8e/	.	.
8BB/	.	8A/	.	8f#/J	.	.
!LO:LB:g=original	!	!	!	!	!	!
=127	=127	=127	=127	=127	=127	=127
*xywh-#68:598,4067,3341,346	*	*	*	*	*	*
4EE/	.	8Gn/L	.	4gn/	.	.
.	.	8B/	.	.	.	.
4EE/	.	8e/	.	4g/	.	.
.	.	8B/J	.	.	.	.
!	!	!	!	!LO:MO:mod=16qqa	!	!
.	.	.	.	8qqa/	.	.
4EE/	.	8G/L	.	8g/L	.	.
.	.	8B/	.	8f#/	.	.
4r	.	8e/	.	8g/	.	.
.	.	8B/J	.	8a/J	.	.
=128	=128	=128	=128	=128	=128	=128
.	.	.	.	8qqa/	.	.
2BB/	.	8d#X/L	.	2f#/	.	.
.	.	8B/	.	.	.	.
.	.	8d#/	.	.	.	.
.	.	8B/J	.	.	.	.
4F#\	.	8d#/L	.	2r	.	.
.	.	8B/	.	.	.	.
4D#\	.	8d#/	.	.	.	.
.	.	8B/J	.	.	.	.
=129	=129	=129	=129	=129	=129	=129
.	.	.	.	8qqf#/	.	.
!	!	!	!	!LO:SIC:s=[2b	!	!
4BB/	.	8f#/L	.	2b\	.	.
.	.	8B/	.	.	.	.
4r	.	8f#/	.	.	.	.
.	.	8B/J	.	.	.	.
!	!	!	!	!LO:SIC:s=8bL]	!	!
4D#\	.	8f#/L	.	8b/L	.	.
.	.	8B/	.	8a/	.	.
4r	.	8f#/	.	8gn/	.	.
.	.	8B/J	.	8f#/J	.	.
!	!	!LO:LB:g=original	!	!LO:LB:g=original	!	!
=130	=130	=130	=130	=130	=130	=130
*	*	*	*	*xywh-#17:550,3057,3507,317	*	*
.	.	.	.	8qqa/	.	.
*	*	*xywh-#47:355,4146,3331,340	*	*	*	*
4E\	.	8e/L	.	2gn/	.	.
.	.	8B/	.	.	.	.
4r	.	8Gn/	.	.	.	.
.	.	8B/J	.	.	.	.
8E\L	.	8G/L	.	2r	.	.
8F#\	.	8A/	.	.	.	.
8Gn\	.	8B/	.	.	.	.
8E\J	.	8G/J	.	.	.	.
=131	=131	=131	=131	=131	=131	=131
.	.	.	.	8qqf#/	.	.
!	!	!	!	!LO:SIC:s=[2b	!	!
4D#\	.	8f#/L	.	2b\	.	.
.	.	8B/	.	.	.	.
4r	.	8f#/	.	.	.	.
.	.	8B/J	.	.	.	.
!	!	!	!	!LO:SIC:s=8bL]	!	!
4BB/	.	8d#X/L	.	8b\L	.	<
.	.	8B/	.	8ccn\	.	.
4r	.	8d#/	.	8b\	.	.
!	!	!	!	!	!	!LO:MO:mod=[[
.	.	8B/J	.	8a\J	.	[
=132	=132	=132	=132	=132	=132	=132
!	!	!	!	!	!	!LO:MO:mod=.
.	.	.	.	8qqa/	.	>
!	!	!	!	!	!	!LO:MO:mod=>]
4r	.	8e/L	.	2gn/	.	]]
.	.	8B/	.	.	.	.
4E\	.	8e/	.	.	.	.
.	.	8B/J	.	.	.	.
4EE/	.	8Gn/L	.	2r	.	.
.	.	8e/	.	.	.	.
4r	.	8B/	.	.	.	.
.	.	8e/J	.	.	.	.
=133	=133	=133	=133	=133	=133	=133
2GGn/	.	8e/L	.	8b\L	.	.
.	.	8b/	.	8ee\J	.	.
!	!	!	!	!LO:MO:mod=[4ee	!	!
.	.	8g#X/	.	4.ee\	.	.
.	.	8b/J	.	.	.	.
!	!	!	!	!LO:MO:null:mod=8ee]L	!	!
2GG#X/	.	8e/L	.	.	.	.
!	!	!	!	!LO:SIC:s=8dd	!	!
.	.	8fn/	.	8ddn\L	.	.
.	.	8e/	.	8ccn\	.	.
.	.	8dn/J	.	8b\J	.	.
=134	=134	=134	=134	=134	=134	=134
!	!	!	!	!LO:SIC:s=8qqdd	!	!
.	.	.	.	8qqdd#/	.	.
2AA/	.	8cn/L	.	2ccn\	.	.
.	.	8e/	.	.	.	.
.	.	8a/	.	.	.	.
.	.	8e/J	.	.	.	.
2r	.	8c/L	.	4.r	.	.
.	.	8e/	.	.	.	.
.	.	8a/	.	.	.	.
.	.	8e/J	.	16a/LL	.	.
.	.	.	.	16b/JJ	.	.
=135	=135	=135	=135	=135	=135	=135
2AA/	.	4e/	.	4.ccn\	.	.
.	.	4r	.	.	.	.
.	.	.	.	8b\	.	.
4r	.	(4cn/	p	8a'/L	.	.
.	.	.	.	8gn'/	.	.
4AA#X/	pp	4c#X/)	.	8f#'/	.	.
.	.	.	.	8e'/J	.	.
=136	=136	=136	=136	=136	=136	=136
2BB;/	.	2B;/ 2f#	.	(2e;/	.	.
!LO:SIC:s=4BB;	!	!LO:SIC:s=4B 4f#;	!	!LO:SIC:s=4d#;)	!	!
4BB/	.	4B/ 4f#	.	4d#X/)	.	.
!LO:SIC:s=4r	!	!	!	!	!	!
4r;	.	4r	.	4r	.	.
=137	=137	=137	=137	=137	=137	=137
8E\	.	8G#/	.	(16e/LL	.	.
.	.	.	.	16f#/	.	.
8r	.	8r	.	16g#X/	.	.
.	.	.	.	16a/JJ	.	.
!	!LO:DY:b:t=rinf:mod=%s	!	!	!	!	!
8E\L	rf	8G#/L	.	16b/LL	.	.
.	.	.	.	16a#X/)	.	.
8D#X\J	.	8A/J	.	(16cc#/	.	.
.	.	.	.	16a#/JJ)	.	.
8E\L	.	8G#/L	.	(16b/LL	.	.
.	.	.	.	16a#/)	.	.
8D#\	.	8A/	.	(16cc#/	.	.
.	.	.	.	16a#/JJ)	.	.
8E\	.	8G#/	.	(16b/LL	.	.
.	.	.	.	16a#/)	.	.
8D#\J	.	8A/J	.	(16cc#/	.	.
.	.	.	.	16a#/JJ)	.	.
!LO:LB:g=original	!	!LO:LB:g=original	!	!LO:LB:g=original	!	!
=138	=138	=138	=138	=138	=138	=138
*xywh-#68:583,4344,3364,358	*	*xywh-#47:351,4420,3335,344	*	*xywh-#17:573,3355,3432,289	*	*
4E\	.	4G#/	.	(16b\LL	.	.
.	.	.	.	16ee\	.	.
.	.	.	.	16gg#\	.	.
.	.	.	.	16ff#\JJ	.	.
4r	.	4r	.	16ee\LL	.	.
.	.	.	.	16dd#X\	.	.
.	.	.	.	16cc#\	.	.
.	.	.	.	16b\JJ)	.	.
2BB/	.	2d#X/	.	(16b/LL	.	.
.	.	.	.	16a#X/	.	.
.	.	.	.	16b/	.	.
.	.	.	.	16cc#/JJ	.	.
.	.	.	.	16b/LL	.	.
.	.	.	.	16an/	.	.
.	.	.	.	16g#/	.	.
.	.	.	.	16f#/JJ)	.	.
=139	=139	=139	=139	=139	=139	=139
!	!	!	!	!LO:SIC:s=(16eLL	!	!
8E\	.	8e/	.	16e/LL	.	.
.	.	.	.	16f#/	.	.
8r	.	8r	.	16g#/	.	.
.	.	.	.	16a/JJ	.	.
8E\L	.	8G#/L	.	16b/LL	.	.
!	!	!	!	!LO:SIC:s=16a#)	!	!
.	.	.	.	16a#X/	.	.
!	!	!	!	!LO:SIC:s=(16cc#	!	!
8D#\J	.	8A/J	.	16cc#/	.	.
!	!	!	!	!LO:SIC:s=16a#JJ)	!	!
.	.	.	.	16a#/JJ	.	.
!	!	!	!	!LO:SIC:s=(16bLL	!	!
8E\L	.	8G#/L	.	16b/LL	.	.
!	!	!	!	!LO:SIC:s=16a#)	!	!
.	.	.	.	16a#/	.	.
!	!	!	!	!LO:SIC:s=(16cc#	!	!
8D#\	.	8A/	.	16cc#/	.	.
!	!	!	!	!LO:SIC:s=16a#JJ)	!	!
.	.	.	.	16a#/JJ	.	.
!	!	!	!	!LO:SIC:s=(16bLL	!	!
8E\	.	8G#/	.	16b/LL	.	.
!	!	!	!	!LO:SIC:s=16a#)	!	!
.	.	.	.	16a#/	.	.
!	!	!	!	!LO:SIC:s=(16cc#	!	!
8D#\J	.	8A/J	.	16cc#/	.	.
!	!	!	!	!LO:SIC:s=16a#JJ)	!	!
.	.	.	.	16a#/JJ	.	.
=140	=140	=140	=140	=140	=140	=140
4E\	.	4G#/	.	(16b\LL	.	.
.	.	.	.	16ee\	.	.
.	.	.	.	16gg#\	.	.
.	.	.	.	16bb\JJ)	.	.
4r	.	4r	.	(16aa\LL	.	.
.	.	.	.	16gg#\	.	.
.	.	.	.	16ff#\	.	.
.	.	.	.	16ee\JJ)	.	.
2BB/	.	4f#/	.	(16ee\LL	.	.
.	.	.	.	16dd#\	.	.
.	.	.	.	16cc#\	.	.
.	.	.	.	16b\JJ)	.	.
.	.	4d#/	.	(16b/LL	.	.
.	.	.	.	16a/	.	.
.	.	.	.	16g#/	.	.
.	.	.	.	16f#/JJ)	.	.
!	!	!	!	!LO:LB:g=original	!	!
=141	=141	=141	=141	=141	=141	=141
!	!	!	!	!LO:TX:t=P:problem=mixed beam	!	!
*	*	*	*	*xywh-#17:563,3626,3432,354	*	*
4E\	.	4e/	f	16e`/LL	.	.
.	.	.	.	(16ee\	.	.
.	.	.	.	16gg#\	.	.
.	.	.	.	16ff#\JJ	.	.
4r	.	4r	.	16ee\LL	.	.
.	.	.	.	16dd#\	.	.
.	.	.	.	16cc#\	.	.
.	.	.	.	16b\JJ	.	.
4C#/	.	4A/ 4e	.	16a\LL)	.	.
.	.	.	.	(16aa\	.	.
.	.	.	.	16ccc#\	.	.
.	.	.	.	16bb\JJ	.	.
4r	.	4r	.	16aa\LL	.	.
.	.	.	.	16gg#\	.	.
.	.	.	.	16ff#\	.	.
.	.	.	.	16ee\JJ	.	.
=142	=142	=142	=142	=142	=142	=142
4BB/	.	4f#/	.	16dd#\LL)	.	.
.	.	.	.	(16dd#\	.	.
.	.	.	.	16ff#\	.	.
.	.	.	.	16ee\JJ	.	.
4r	.	4r	.	16dd#\LL	.	.
.	.	.	.	16cc#\	.	.
.	.	.	.	16b\	.	.
.	.	.	.	16a\JJ	.	.
4E\	.	4B/ 4f#	.	16g#\LL)	.	.
.	.	.	.	(16gg#\	.	.
.	.	.	.	16bb\	.	.
.	.	.	.	16aa\JJ	.	.
4r	.	4r	.	16gg#\LL	.	.
.	.	.	.	16ff#\	.	.
.	.	.	.	16ee\	.	.
.	.	.	.	16dd#\JJ	.	.
=143	=143	=143	=143	=143	=143	=143
4A\	.	4e/	.	16cc#\LL)	.	.
.	.	.	.	(16cc#\	.	.
.	.	.	.	16ee\	.	.
.	.	.	.	16dd#\JJ	.	.
4r	.	4r	.	16cc#\LL	.	.
.	.	.	.	16b\	.	.
.	.	.	.	16a\	.	.
.	.	.	.	16g#\JJ	.	.
4AA/	.	4c#/	.	16f#/LL)	.	.
.	.	.	.	(16f#/	.	.
.	.	.	.	16a/	.	.
.	.	.	.	16g#/JJ	.	.
4AA#X/	.	4r	.	16f#/LL	.	.
.	.	.	.	16e/	.	.
.	.	.	.	16d#/	.	.
.	.	.	.	16c#/JJ)	.	.
!	!	!	!	!LO:LB:g=original	!	!
=144	=144	=144	=144	=144	=144	=144
*	*	*	*	*xywh-#17:572,3948,3451,349	*	*
[1BB	.	2d#/	.	(16B/LL	.	.
.	.	.	.	16c#/	.	.
.	.	.	.	16d#/	.	.
.	.	.	.	16e/JJ	.	.
.	.	.	.	16f#/LL	.	.
.	.	.	.	16g#/	.	.
.	.	.	.	16a/	.	.
.	.	.	.	16f#/JJ)	.	.
.	.	4e/	.	(16g#/LL	.	.
.	.	.	.	16e/)	.	.
.	.	.	.	(16b/	.	.
.	.	.	.	16g#/JJ)	.	.
.	.	4g#/	.	(16ee/LL	.	.
.	.	.	.	16b/)	.	.
.	.	.	.	(16g#/	.	.
.	.	.	.	16e/JJ)	.	.
=145	=145	=145	=145	=145	=145	=145
2BB/]	.	4f#/	.	16B/LL	.	.
.	.	.	.	16c#/	.	.
.	.	.	.	16d#/	.	.
.	.	.	.	16e/JJ	.	.
.	.	4d#/	.	16f#/LL	.	.
.	.	.	.	16gn/	.	.
.	.	.	.	16a/	.	.
.	.	.	.	16f#/JJ	.	.
!LO:SIC:s=[2E	!	!	!	!	!	!
2E\	.	4e/	.	16g/LL	.	.
.	.	.	.	16e/	.	.
.	.	.	.	16b/	.	.
.	.	.	.	16g/JJ	.	.
.	.	4gn/	.	16ee/LL	.	.
.	.	.	.	16b/	.	.
.	.	.	.	16gn/	.	.
.	.	.	.	16e/JJ	.	.
=146	=146	=146	=146	=146	=146	=146
!LO:SIC:s=4E]	!	!	!LO:DY:b:t=rinf:mod=%s	!	!	!
4E\	.	2gn/	rf	(16gn/LL	.	.
.	.	.	.	16e/)	.	.
.	.	.	.	(16ccn/	.	.
.	.	.	.	16g/JJ)	.	.
4r	.	.	.	(16ee/LL	.	.
.	.	.	.	16cc/)	.	.
.	.	.	.	(16g/	.	.
.	.	.	.	16e/JJ)	.	.
!	!LO:DY:b:t=rinf:mod=%s	!	!	!	!	!
2Cn/	rf	2e/	.	(16gn/LL	.	.
.	.	.	.	16e/	.	.
.	.	.	.	16ccn/	.	.
.	.	.	.	16g/JJ	.	.
.	.	.	.	16ee/LL	.	.
.	.	.	.	16cc/	.	.
.	.	.	.	16g/	.	.
.	.	.	.	16e/JJ)	.	.
!	!	!	!	!LO:LB:g=original	!	!
=147	=147	=147	=147	=147	=147	=147
!	!	!	!	!	!	!LO:MO:mod=!LO&colon;DY&colon;ed=brack
!	!	!	!	!	!	!null
!	!LO:DY:b:t=rinf:mod=%s	!	!	!	!	!LO:MO:null:mod=f
*	*	*	*	*xywh-#17:563,4251,3455,345	*	*
2BB/	rf	2dn/	.	(16fn/LL	.	.
.	.	.	.	16dn/)	.	.
.	.	.	.	(16ddn/	.	.
.	.	.	.	16b/JJ)	.	.
.	.	.	.	(16ffn\LL	.	.
.	.	.	.	16dd\	.	.
.	.	.	.	16b\	.	.
.	.	.	.	16dd\JJ)	.	.
2GGn/	.	2b\	f	(16ff\LL	.	.
.	.	.	.	16dd\	.	.
.	.	.	.	16b\	.	.
.	.	.	.	16gn\JJ	.	.
.	.	.	.	16f/LL	.	.
.	.	.	.	16d/	.	.
.	.	.	.	16B/	.	.
!	!	!	!	!LO:SIC:s=16GJJ)	!	!
.	.	.	.	16G#/JJ	.	.
=148	=148	=148	=148	=148	=148	=148
!	!	!	!	!LO:SIC:s=8c	!	!
4CCn/	.	4gn/ 4ccn	.	8cn/)	.	.
.	.	.	.	4cccn\	.	.
4r	.	4r	.	.	.	.
.	.	.	.	4ccc\	.	.
2r	.	2r	.	.	.	.
.	.	.	.	4ccc\	.	.
.	.	.	.	8bb\	.	.
!LO:LB:g=original	!	!	!	!	!	!
=149	=149	=149	=149	=149	=149	=149
!	!LO:MO:null:mod=rf	!	!	!	!	!
*xywh-#68:571,4614,3407,377	*	*	*	*	*	*
8Cn\L	.	8e/L	f	8aa#X\	.	f
16E\L	.	16gn/L	.	4aa#\	.	.
16Gn\JJ	.	16ccn/JJ	.	.	.	.
!	!LO:MO:mod=!null:null	!	!	!	!	!
!	!LO:DY:b:t=rinf	!	!	!	!	!
!LO:SIC:s=8cL	!LO:MO:mod=.	!	!	!	!	!
8c#\L	rf	8ee\L	.	.	.	.
16E\L	.	16g\L	.	4aa#\	.	.
16G\JJ	.	16cc\JJ	.	.	.	.
!LO:SIC:s=8cL	!	!	!	!	!	!
8c#\L	.	8ee\L	.	.	.	.
!LO:SIC:s=8c	!	!	!	!	!	!
8c#\	.	8ee\	.	4aa#\	.	.
!LO:SIC:s=8c	!	!	!	!	!	!
8c#\	.	8ee\	.	.	.	.
!LO:SIC:s=8cJ	!	!	!	!	!	!
8c#\J	.	8ee\J	.	8aa#\	.	.
!	!	!LO:LB:g=original	!	!	!	!
=150	=150	=150	=150	=150	=150	=150
*	*	*xywh-#47:344,4710,3138,371	*	*	*	*
8r	.	8r	.	[2bb\	.	p
8B\L	p	8g#X/L	p	.	.	.
8G#X\	.	8e/	.	.	.	.
8E\J	.	8g#/J	.	.	.	.
4BB/	.	4b/	.	16bb\LL]	.	.
.	.	.	.	16ee`\	.	.
.	.	.	.	16gg#X`\	.	.
.	.	.	.	16ee`\JJ	.	.
4r	.	4r	.	(16bb\LL	.	.
.	.	.	.	16gg#\)	.	.
.	.	.	.	(16ee\	.	.
.	.	.	.	16gg#\JJ)	.	.
=151	=151	=151	=151	=151	=151	=151
8r	.	8r	.	[2b\	.	.
8B\L	pp	8g#/L	pp	.	.	.
8G#\	.	8e/	.	.	.	.
8E\J	.	8g#/J	.	.	.	.
4BB/	.	4b/	.	16b\LL]	.	.
.	.	.	.	16ee\	.	.
.	.	.	.	16gg#\	.	.
.	.	.	.	16ee\JJ	.	.
4r	.	4r	.	16bb\LL	.	.
.	.	.	.	16gg#\	.	.
.	.	.	.	16ee\	.	.
.	.	.	.	16gg#\JJ	.	.
!	!	!	!	!LO:LB:g=original	!	!
=152	=152	=152	=152	=152	=152	=152
*	*	*	*	*xywh-#17:563,4540,3479,485	*	*
4B\	.	4g#/	.	16b\LL	.	.
.	.	.	.	16ee\	.	.
.	.	.	.	16gg#\	.	.
.	.	.	.	16ee\JJ	.	.
4r	.	8e/L	.	16bb\LL	.	.
.	.	.	.	16gg#\	.	.
.	.	8g#/J	.	16ee\	.	.
.	.	.	.	16gg#\JJ	.	.
2r	.	8b/L	.	16b\LL	.	.
.	.	.	.	16ee\	.	.
.	.	8g#/	.	16gg#\	.	.
.	.	.	.	16ee\JJ	.	.
.	.	8e/	.	16bb\LL	.	.
.	.	.	.	16gg#\	.	.
.	.	8g#/J	.	16ff#\	.	.
.	.	.	.	16ee\JJ	.	.
=153	=153	=153	=153	=153	=153	=153
8B\L	.	8ee\L	f	1ff#T	.	.
8B\	.	8b\	.	.	.	.
8B\	.	8ee\	.	.	.	.
8B\J	.	8b\J	.	.	.	.
!	!LO:MO:mod=!null:null	!	!	!	!	!
!	!LO:HP:b:t=cres	!	!	!	!	!
8BB/L	<	8dd#X\L	.	.	.	.
8BB/	.	8b\	.	.	.	.
8BB/	.	8a\	.	.	.	.
8BB/J	.	8b\J	.	.	.	.
=154	=154	=154	=154	=154	=154	=154
!	!LO:MO:null:mod=p	!	!	!	!	!
2E\	.	8g#/L	p	12ee\L	.	.
.	.	.	.	12b\	.	.
.	.	8b/	.	.	.	.
.	.	.	.	12gg#\J	.	.
.	.	8g#/	.	12ee\L	.	.
.	.	.	.	12b\	.	.
.	.	8b/J	.	.	.	.
.	.	.	.	12gg#\J	.	.
!LO:SIC:s=4D#	!LO:MO:mod=.	!	!	!	!	!
4D#X\	p	8a/L	.	12ff#\L	.	.
.	.	.	.	12aa\	.	.
.	.	8b/	.	.	.	.
.	.	.	.	12gg#\J	.	.
!	!	!	!	!LO:MO:mod=16qqgg#	!	!
.	.	.	.	8qqgg#/	.	.
4BB/	.	8a/	.	12ff#\L	.	.
.	.	.	.	12ee\	.	.
.	.	8b/J	.	.	.	.
.	.	.	.	12ff#\J	.	.
=155	=155	=155	=155	=155	=155	=155
2E\	.	8g#/L	.	12ee\L	.	.
.	.	.	.	12b\	.	.
.	.	8b/	.	.	.	.
.	.	.	.	12gg#\J	.	.
.	.	8g#/	.	12ee\L	.	.
.	.	.	.	12b\	.	.
.	.	8b/J	.	.	.	.
.	.	.	.	12gg#\J	.	.
4D#/	.	8a/L	.	12ff#\L	.	.
.	.	.	.	12aa\	.	.
.	.	8b/	.	.	.	.
.	.	.	.	12gg#\J	.	.
!	!	!	!	!LO:MO:mod=16qqgg#	!	!
.	.	.	.	8qqgg#/	.	.
4BB/	.	8a/	.	12ff#\L	.	.
.	.	.	.	12ee\	.	.
.	.	8b/J	.	.	.	.
.	.	.	.	12ff#\J	.	.
=156	=156	=156	=156	=156	=156	=156
!	!	!	!LO:MO:mod=.	!	!	!
4E\	.	8g#/L	f	12ee\L	.	.
.	.	.	.	12bb\	.	.
.	.	8b/	.	.	.	.
.	.	.	.	12gg#\J	.	.
!	!LO:DY:b:t=rinf:mod=%s	!	!	!LO:MO:mod=16qqgg#	!	!
.	rf	.	.	8qqgg#/	.	.
!	!	!	!	!	!	!LO:MO:null:mod=<
4BB/	.	8a/	.	12ff#\L	.	.
!	!	!	!	!	!	!LO:MO:mod=!null:null
!	!	!	!	!	!	!LO:HP:b:t=cres
!	!	!	!	!	!	!LO:MO:mod=.
.	.	.	.	12ee\	.	<
.	.	8b/J	.	.	.	.
.	.	.	.	12ff#\J	.	.
4EE/	.	8g#/L	.	12ee\L	.	.
.	.	.	.	12bb\	.	.
.	.	8b/	.	.	.	.
.	.	.	.	12gg#\J	.	.
!	!	!	!	!LO:MO:mod=16qqgg#	!	!
.	.	.	.	8qqgg#/	.	.
4BB/	.	8a/	.	12ff#\L	.	.
.	.	.	.	12ee\	.	.
.	.	8b/J	.	.	.	.
.	.	.	.	12ff#\J	.	.
=157	=157	=157	=157	=157	=157	=157
!	!LO:MO:mod=!LO&colon;DY&colon;ed=brack	!	!	!	!	!
!	!null	!	!	!	!	!
!	!LO:MO:null:mod=f	!	!	!	!	!
4E\	.	4g#/	f	4ee\	.	f
4EE/	.	4g#/ 4b	.	4eee\	.	.
2r	.	2r	.	2r	.	.
==	==	==	==	==	==	==
*-	*-	*-	*-	*-	*-	*-
!!!system-decoration: [(*)]
!!!RDF**kern: > = above
!!!RDF**kern: < = below
!!LO:MO:ori
!!!RDF**dynam: f = F
!!LO:MO:end
!!!ENC: Mateusz Solarz
!!!END: 2022-05-23
!!!ENC: Urszula Świątek
!!!END: 2022-06-30
!!!ENC-modern: Andrzej Kubiczek
!!!END-modern: 2022-08-19
!!!filter-modern: shed -k -e "s/([^a-gA-Gn#X-])[<>]/$1/g" | shed -e "s/TX(.*):t=P:/tx$1:t=P:/LG" | shed -X dynam -e "s/:a/:A/LX" | sic -sq | modori -m | autostem -r | tie -s
!!!YEC: Copyright 2022 Narodowy Instytut Fryderyka Chopina (https://polishscores.org)
!!!YEM: License CC-BY-4.0 (https://creativecommons.org/licenses/by/4.0)
!!!IIIF: https://polona.pl/iiif/item/MTAxMDA3MzY2/manifest.json
!!!ENC-iiif: Konrad Tyszka
!!!END-iiif: 2022-09-04
